(.../PCBGCODE/pcb-gcode.ulp)
(Copyright 2005 - 2012 by John Johnson)
(See readme.txt for licensing terms.)
(This file generated from the board:)
(.../Brew-watcher/Hardware/Port_temp_hw/pcb.brd)
(Current profile is .../PCBGCODE/profiles/generic.pp  )
(This file generated 30/08/2019 16:11)
(Settings from pcb-machine.h)
(  Tool Size)
(0.2000 )
(Z Axis Settings)
(  High     Up        Down     Drill)
(12.7000 	2.5400 	-0.1778 	-1.6000 )
(spindle on time = 3.0000)
(milling depth = -0.1000)
(text depth = -0.1270)
(tool change at 12.7000 15.2400 25.4000 )
(feed rate xy = F75.00 )
(feed rate z  = F50.00 )
(Settings from pcb-defaults.h)
(isolate min = 0.0050)
(isolate max = 0.0150)
(isolate step = 0.1270)
(Generated bottom outlines, bottom drill, )
(Unit of measure: mm)
( Tool|       Size       |  Min Sub |  Max Sub |   Count )
( T01  0.800mm 0.0315in 0.0000in 0.0000in )
( T02  0.813mm 0.0320in 0.0000in 0.0000in )
( T03  1.016mm 0.0400in 0.0000in 0.0000in )
(Metric Mode)
G21
(Absolute Coordinates)
G90
M05
G00 Z25.4000 
G00 X12.7000 Y15.2400 
M06 T01  ; 0.8000 
G01 Z0.0000 F50.00 
M06 T01  ; 0.8000 
G00 Z2.5400 
M03
G04 P3.000000
G00 Z2.540000
G00 X-31.7500 Y44.4500 
G01 Z-1.6000 F50.00 
G01 Z2.540000
(R2.5400  P1.000000)
(G00 Z2.540000)
G00 X-34.2900 Y44.4500 
G01 Z-1.600000
G01 Z2.540000
(G00 Z2.540000)
G00 X-36.8300 Y44.4500 
G01 Z-1.600000
G01 Z2.540000
(G00 Z2.540000)
G00 X-36.8300 Y13.9700 
G01 Z-1.600000
G01 Z2.540000
(G00 Z2.540000)
G00 X-39.3700 Y44.4500 
G01 Z-1.600000
G01 Z2.540000
(G00 Z2.540000)
G00 X-39.3700 Y13.9700 
G01 Z-1.600000
G01 Z2.540000
(G00 Z2.540000)
G00 X-41.9100 Y33.0200 
G01 Z-1.600000
G01 Z2.540000
(G00 Z2.540000)
G00 X-41.9100 Y44.4500 
G01 Z-1.600000
G01 Z2.540000
(G00 Z2.540000)
G00 X-41.9100 Y13.9700 
G01 Z-1.600000
G01 Z2.540000
(G00 Z2.540000)
G00 X-41.9100 Y30.4800 
G01 Z-1.600000
G01 Z2.540000
(G00 Z2.540000)
G00 X-44.4500 Y44.4500 
G01 Z-1.600000
G01 Z2.540000
(G00 Z2.540000)
G00 X-45.7200 Y31.7500 
G01 Z-1.600000
G01 Z2.540000
(G00 Z2.540000)
G00 X-45.7200 Y34.2900 
G01 Z-1.600000
G01 Z2.540000
(G00 Z2.540000)
G00 X-45.7200 Y36.8300 
G01 Z-1.600000
G01 Z2.540000
(G00 Z2.540000)
G00 X-45.7200 Y39.3700 
G01 Z-1.600000
G01 Z2.540000
(G00 Z2.540000)
G00 X-45.7200 Y41.9100 
G01 Z-1.600000
G01 Z2.540000
(G00 Z2.540000)
G00 X-45.7200 Y13.9700 
G01 Z-1.600000
G01 Z2.540000
(G00 Z2.540000)
G00 X-45.7200 Y16.5100 
G01 Z-1.600000
G01 Z2.540000
(G00 Z2.540000)
G00 X-45.7200 Y19.0500 
G01 Z-1.600000
G01 Z2.540000
(G00 Z2.540000)
G00 X-45.7200 Y21.5900 
G01 Z-1.600000
G01 Z2.540000
(G00 Z2.540000)
G00 X-45.7200 Y24.1300 
G01 Z-1.600000
G01 Z2.540000
(G00 Z2.540000)
G00 X-45.7200 Y26.6700 
G01 Z-1.600000
G01 Z2.540000
(G00 Z2.540000)
G00 X-45.7200 Y29.2100 
G01 Z-1.600000
G01 Z2.540000
(G00 Z2.540000)
G00 X-30.4800 Y31.7500 
G01 Z-1.600000
G01 Z2.540000
(G00 Z2.540000)
G00 X-30.4800 Y34.2900 
G01 Z-1.600000
G01 Z2.540000
(G00 Z2.540000)
G00 X-30.4800 Y36.8300 
G01 Z-1.600000
G01 Z2.540000
(G00 Z2.540000)
G00 X-30.4800 Y39.3700 
G01 Z-1.600000
G01 Z2.540000
(G00 Z2.540000)
G00 X-30.4800 Y41.9100 
G01 Z-1.600000
G01 Z2.540000
(G00 Z2.540000)
G00 X-30.4800 Y13.9700 
G01 Z-1.600000
G01 Z2.540000
(G00 Z2.540000)
G00 X-30.4800 Y16.5100 
G01 Z-1.600000
G01 Z2.540000
(G00 Z2.540000)
G00 X-30.4800 Y19.0500 
G01 Z-1.600000
G01 Z2.540000
(G00 Z2.540000)
G00 X-30.4800 Y21.5900 
G01 Z-1.600000
G01 Z2.540000
(G00 Z2.540000)
G00 X-30.4800 Y24.1300 
G01 Z-1.600000
G01 Z2.540000
(G00 Z2.540000)
G00 X-30.4800 Y26.6700 
G01 Z-1.600000
G01 Z2.540000
(G00 Z2.540000)
G00 X-30.4800 Y29.2100 
G01 Z-1.600000
G01 Z2.540000
M05
G00 Z25.4000 
M06 T02  ; 0.8128 
G01 Z0.0000 F50.00 
M06 T02  ; 0.8128 
G00 Z2.5400 
M03
G04 P3.000000
G00 Z2.540000
G00 X-48.2600 Y26.6700 
G01 Z-1.6000 F50.00 
G01 Z2.540000
(R2.5400  P1.000000)
(G00 Z2.540000)
G00 X-58.4200 Y26.6700 
G01 Z-1.600000
G01 Z2.540000
M05
G00 Z25.4000 
M06 T03  ; 1.0160 
G01 Z0.0000 F50.00 
M06 T03  ; 1.0160 
G00 Z2.5400 
M03
G04 P3.000000
G00 Z2.540000
G00 X-48.2600 Y49.5300 
G01 Z-1.6000 F50.00 
G01 Z2.540000
(R2.5400  P1.000000)
(G00 Z2.540000)
G00 X-50.8000 Y49.5300 
G01 Z-1.600000
G01 Z2.540000
(G00 Z2.540000)
G00 X-62.2300 Y26.6700 
G01 Z-1.600000
G01 Z2.540000
(G00 Z2.540000)
G00 X-62.2300 Y29.2100 
G01 Z-1.600000
G01 Z2.540000
(G00 Z2.540000)
G00 X-8.8900 Y49.5300 
G01 Z-1.600000
G01 Z2.540000
(G00 Z2.540000)
G00 X-8.8900 Y52.0700 
G01 Z-1.600000
G01 Z2.540000
(G00 Z2.540000)
G00 X-10.1600 Y15.2400 
G01 Z-1.600000
G01 Z2.540000
(G00 Z2.540000)
G00 X-11.4300 Y49.5300 
G01 Z-1.600000
G01 Z2.540000
(G00 Z2.540000)
G00 X-11.4300 Y52.0700 
G01 Z-1.600000
G01 Z2.540000
(G00 Z2.540000)
G00 X-12.7000 Y15.2400 
G01 Z-1.600000
G01 Z2.540000
(G00 Z2.540000)
G00 X-13.9700 Y49.5300 
G01 Z-1.600000
G01 Z2.540000
(G00 Z2.540000)
G00 X-13.9700 Y52.0700 
G01 Z-1.600000
G01 Z2.540000
(G00 Z2.540000)
G00 X-15.2400 Y15.2400 
G01 Z-1.600000
G01 Z2.540000
(G00 Z2.540000)
G00 X-16.5100 Y49.5300 
G01 Z-1.600000
G01 Z2.540000
(G00 Z2.540000)
G00 X-16.5100 Y52.0700 
G01 Z-1.600000
G01 Z2.540000
T01 
G00 Z12.7000 
M05
M02
