(.../PCBGCODE/pcb-gcode.ulp)
(Copyright 2005 - 2012 by John Johnson)
(See readme.txt for licensing terms.)
(This file generated from the board:)
(.../Brew-watcher/Hardware/Port_temp_hw/pcb.brd)
(Current profile is .../PCBGCODE/profiles/generic.pp  )
(This file generated 30/08/2019 16:11)
(Settings from pcb-machine.h)
(  Tool Size)
(0.2000 )
(Z Axis Settings)
(  High     Up        Down     Drill)
(12.7000 	2.5400 	-0.1778 	-1.6000 )
(spindle on time = 3.0000)
(milling depth = -0.1000)
(text depth = -0.1270)
(tool change at 12.7000 15.2400 25.4000 )
(feed rate xy = F75.00 )
(feed rate z  = F50.00 )
(Settings from pcb-defaults.h)
(isolate min = 0.0050)
(isolate max = 0.0150)
(isolate step = 0.1270)
(Generated bottom outlines, bottom drill, )
(Unit of measure: mm)
(Metric Mode)
G21
(Absolute Coordinates)
G90
G00 X0.0000 Y0.0000 
M03
G04 P3.000000
G00 Z2.5400 
G00 X-18.5200 Y8.1500 
G01 Z-0.1778 F50.00 
G01 X-18.5335 Y8.1500 F75.00 
G01 X-18.5200 Y8.1365 
G01 X-18.5200 Y8.1500 
G00 Z2.5400 
G00 X-24.6600 Y37.5700 
G01 Z-0.1778 F50.00 
G01 X-24.6465 Y37.5700 F75.00 
G01 X-24.6600 Y37.5835 
G01 X-24.6600 Y37.5700 
G00 Z2.5400 
G00 X-22.3300 Y37.5700 
G01 Z-0.1778 F50.00 
G01 X-22.3300 Y37.5835 F75.00 
G01 X-22.3435 Y37.5700 
G01 X-22.3300 Y37.5700 
G00 Z2.5400 
G00 X-55.3500 Y32.9471 
G01 Z-0.1778 F50.00 
G01 X-55.3500 Y34.3629 F75.00 
G01 X-55.3216 Y34.5059 
G01 X-55.2658 Y34.6405 
G01 X-55.1848 Y34.7617 
G01 X-55.0817 Y34.8648 
G01 X-54.9605 Y34.9458 
G01 X-54.8259 Y35.0016 
G01 X-54.6829 Y35.0300 
G01 X-46.5443 Y35.0300 
G01 X-46.4488 Y35.0490 
G01 X-44.9912 Y35.0490 
G01 X-44.8446 Y35.0198 
G01 X-44.7065 Y34.9626 
G01 X-44.5822 Y34.8796 
G01 X-44.4764 Y34.7738 
G01 X-44.3934 Y34.6495 
G01 X-44.3362 Y34.5114 
G01 X-44.3070 Y34.3648 
G01 X-44.3070 Y34.2152 
G01 X-44.3362 Y34.0686 
G01 X-44.3934 Y33.9305 
G01 X-44.4764 Y33.8062 
G01 X-44.5822 Y33.7004 
G01 X-44.7065 Y33.6174 
G01 X-44.8446 Y33.5602 
G01 X-44.9912 Y33.5310 
G01 X-46.4488 Y33.5310 
G01 X-46.5443 Y33.5500 
G01 X-49.2235 Y33.5500 
G01 X-50.0600 Y32.7135 
G01 X-50.0600 Y31.6771 
G01 X-50.0884 Y31.5341 
G01 X-50.1442 Y31.3995 
G01 X-50.2252 Y31.2783 
G01 X-50.3283 Y31.1752 
G01 X-50.4495 Y31.0942 
G01 X-50.5841 Y31.0384 
G01 X-50.7271 Y31.0100 
G01 X-54.6829 Y31.0100 
G01 X-54.8259 Y31.0384 
G01 X-54.9605 Y31.0942 
G01 X-55.0817 Y31.1752 
G01 X-55.1848 Y31.2783 
G01 X-55.2658 Y31.3995 
G01 X-55.3216 Y31.5341 
G01 X-55.3500 Y31.6771 
G01 X-55.3500 Y32.9471 
G00 Z2.5400 
G00 X-9.7570 Y49.1709 
G01 Z-0.1778 F50.00 
G01 X-9.7570 Y49.8891 F75.00 
G01 X-9.2491 Y50.3970 
G01 X-8.5309 Y50.3970 
G01 X-8.0230 Y49.8891 
G01 X-8.0230 Y49.1709 
G01 X-8.1500 Y49.0439 
G01 X-8.1500 Y48.5665 
G01 X-6.0435 Y46.4600 
G01 X-3.7371 Y46.4600 
G01 X-3.5941 Y46.4316 
G01 X-3.4595 Y46.3758 
G01 X-3.3383 Y46.2948 
G01 X-3.2352 Y46.1917 
G01 X-3.1542 Y46.0705 
G01 X-3.0984 Y45.9359 
G01 X-3.0700 Y45.7929 
G01 X-3.0700 Y41.8371 
G01 X-3.0984 Y41.6941 
G01 X-3.1542 Y41.5595 
G01 X-3.2352 Y41.4383 
G01 X-3.3383 Y41.3352 
G01 X-3.4595 Y41.2542 
G01 X-3.5941 Y41.1984 
G01 X-3.7371 Y41.1700 
G01 X-6.4229 Y41.1700 
G01 X-6.5659 Y41.1984 
G01 X-6.7005 Y41.2542 
G01 X-6.8217 Y41.3352 
G01 X-6.9248 Y41.4383 
G01 X-7.0058 Y41.5595 
G01 X-7.0616 Y41.6941 
G01 X-7.0900 Y41.8371 
G01 X-7.0900 Y45.4135 
G01 X-9.4648 Y47.7883 
G01 X-9.5458 Y47.9095 
G01 X-9.6016 Y48.0441 
G01 X-9.6300 Y48.1871 
G01 X-9.6300 Y49.0439 
G01 X-9.7570 Y49.1709 
G00 Z2.5400 
G00 X-12.2970 Y51.7109 
G01 Z-0.1778 F50.00 
G01 X-12.2970 Y52.4291 F75.00 
G01 X-11.7891 Y52.9370 
G01 X-11.0709 Y52.9370 
G01 X-10.5630 Y52.4291 
G01 X-10.5630 Y51.7109 
G01 X-11.0709 Y51.2030 
G01 X-11.7891 Y51.2030 
G01 X-12.2970 Y51.7109 
G00 Z2.5400 
G00 X-14.8370 Y51.7109 
G01 Z-0.1778 F50.00 
G01 X-14.8370 Y52.4291 F75.00 
G01 X-14.3291 Y52.9370 
G01 X-13.6109 Y52.9370 
G01 X-13.1030 Y52.4291 
G01 X-13.1030 Y51.7109 
G01 X-13.6109 Y51.2030 
G01 X-14.3291 Y51.2030 
G01 X-14.8370 Y51.7109 
G00 Z2.5400 
G00 X-17.3770 Y49.1709 
G01 Z-0.1778 F50.00 
G01 X-17.3770 Y49.8891 F75.00 
G01 X-16.8691 Y50.3970 
G01 X-16.1509 Y50.3970 
G01 X-15.6430 Y49.8891 
G01 X-15.6430 Y49.1709 
G01 X-15.7700 Y49.0439 
G01 X-15.7700 Y33.7600 
G01 X-12.6271 Y33.7600 
G01 X-12.4841 Y33.7316 
G01 X-12.3495 Y33.6758 
G01 X-12.2283 Y33.5948 
G01 X-12.1252 Y33.4917 
G01 X-12.0442 Y33.3705 
G01 X-11.9884 Y33.2358 
G01 X-11.9600 Y33.0929 
G01 X-11.9600 Y30.4071 
G01 X-11.9884 Y30.2641 
G01 X-12.0442 Y30.1295 
G01 X-12.1252 Y30.0083 
G01 X-12.2283 Y29.9052 
G01 X-12.3495 Y29.8242 
G01 X-12.4841 Y29.7684 
G01 X-12.6271 Y29.7400 
G01 X-19.1229 Y29.7400 
G01 X-19.2659 Y29.7684 
G01 X-19.4005 Y29.8242 
G01 X-19.5217 Y29.9052 
G01 X-19.6248 Y30.0083 
G01 X-19.7058 Y30.1295 
G01 X-19.7616 Y30.2641 
G01 X-19.7900 Y30.4071 
G01 X-19.7900 Y30.5529 
G01 X-19.7616 Y30.6959 
G01 X-19.7058 Y30.8305 
G01 X-19.6248 Y30.9517 
G01 X-19.5217 Y31.0548 
G01 X-19.4316 Y31.1150 
G01 X-19.5217 Y31.1752 
G01 X-19.6248 Y31.2783 
G01 X-19.7058 Y31.3995 
G01 X-19.7616 Y31.5341 
G01 X-19.7900 Y31.6771 
G01 X-19.7900 Y33.0929 
G01 X-19.7616 Y33.2358 
G01 X-19.7058 Y33.3705 
G01 X-19.6248 Y33.4917 
G01 X-19.5217 Y33.5948 
G01 X-19.4005 Y33.6758 
G01 X-19.2659 Y33.7316 
G01 X-19.1229 Y33.7600 
G01 X-17.2500 Y33.7600 
G01 X-17.2500 Y49.0439 
G01 X-17.3770 Y49.1709 
G00 Z2.5400 
G00 X-16.8691 Y52.9370 
G01 Z-0.1778 F50.00 
G01 X-16.1509 Y52.9370 F75.00 
G01 X-15.6430 Y52.4291 
G01 X-15.6430 Y51.7109 
G01 X-16.1509 Y51.2030 
G01 X-16.8691 Y51.2030 
G01 X-16.9961 Y51.3300 
G01 X-18.7435 Y51.3300 
G01 X-28.7383 Y41.3352 
G01 X-28.8595 Y41.2542 
G01 X-28.9941 Y41.1984 
G01 X-29.1371 Y41.1700 
G01 X-29.6557 Y41.1700 
G01 X-29.7512 Y41.1510 
G01 X-31.2088 Y41.1510 
G01 X-31.3554 Y41.1802 
G01 X-31.4935 Y41.2374 
G01 X-31.6178 Y41.3204 
G01 X-31.7236 Y41.4262 
G01 X-31.8066 Y41.5505 
G01 X-31.8638 Y41.6886 
G01 X-31.8930 Y41.8352 
G01 X-31.8930 Y41.9848 
G01 X-31.8638 Y42.1314 
G01 X-31.8066 Y42.2695 
G01 X-31.7236 Y42.3938 
G01 X-31.6178 Y42.4995 
G01 X-31.4935 Y42.5826 
G01 X-31.3554 Y42.6398 
G01 X-31.2088 Y42.6690 
G01 X-29.7512 Y42.6690 
G01 X-29.6557 Y42.6500 
G01 X-29.5165 Y42.6500 
G01 X-19.5217 Y52.6448 
G01 X-19.4005 Y52.7258 
G01 X-19.2659 Y52.7816 
G01 X-19.1229 Y52.8100 
G01 X-16.9961 Y52.8100 
G01 X-16.8691 Y52.9370 
G00 Z2.5400 
G00 X-42.6690 Y30.4052 
G01 Z-0.1778 F50.00 
G01 X-42.6690 Y30.5548 F75.00 
G01 X-42.6398 Y30.7014 
G01 X-42.5826 Y30.8395 
G01 X-42.4995 Y30.9638 
G01 X-42.3938 Y31.0696 
G01 X-42.2695 Y31.1526 
G01 X-42.1314 Y31.2098 
G01 X-41.9848 Y31.2390 
G01 X-41.8352 Y31.2390 
G01 X-41.6886 Y31.2098 
G01 X-41.5505 Y31.1526 
G01 X-41.4262 Y31.0696 
G01 X-41.3204 Y30.9638 
G01 X-41.2374 Y30.8395 
G01 X-41.1802 Y30.7014 
G01 X-41.1510 Y30.5548 
G01 X-41.1510 Y30.4052 
G01 X-41.1802 Y30.2586 
G01 X-41.2374 Y30.1205 
G01 X-41.3204 Y29.9962 
G01 X-41.4262 Y29.8904 
G01 X-41.5505 Y29.8074 
G01 X-41.6886 Y29.7502 
G01 X-41.8352 Y29.7210 
G01 X-41.9848 Y29.7210 
G01 X-42.1314 Y29.7502 
G01 X-42.2695 Y29.8074 
G01 X-42.3938 Y29.8904 
G01 X-42.4995 Y29.9962 
G01 X-42.5826 Y30.1205 
G01 X-42.6398 Y30.2586 
G01 X-42.6690 Y30.4052 
G00 Z2.5400 
G00 X-42.6690 Y32.9452 
G01 Z-0.1778 F50.00 
G01 X-42.6690 Y33.0948 F75.00 
G01 X-42.6398 Y33.2414 
G01 X-42.5826 Y33.3795 
G01 X-42.4995 Y33.5038 
G01 X-42.3938 Y33.6095 
G01 X-42.2695 Y33.6926 
G01 X-42.1314 Y33.7498 
G01 X-41.9848 Y33.7790 
G01 X-41.8352 Y33.7790 
G01 X-41.6886 Y33.7498 
G01 X-41.5505 Y33.6926 
G01 X-41.4262 Y33.6095 
G01 X-41.3204 Y33.5038 
G01 X-41.2374 Y33.3795 
G01 X-41.1802 Y33.2414 
G01 X-41.1510 Y33.0948 
G01 X-41.1510 Y32.9452 
G01 X-41.1802 Y32.7986 
G01 X-41.2374 Y32.6605 
G01 X-41.3204 Y32.5362 
G01 X-41.4262 Y32.4304 
G01 X-41.5505 Y32.3474 
G01 X-41.6886 Y32.2902 
G01 X-41.8352 Y32.2610 
G01 X-41.9848 Y32.2610 
G01 X-42.1314 Y32.2902 
G01 X-42.2695 Y32.3474 
G01 X-42.3938 Y32.4304 
G01 X-42.4995 Y32.5362 
G01 X-42.5826 Y32.6605 
G01 X-42.6398 Y32.7986 
G01 X-42.6690 Y32.9452 
G00 Z2.5400 
G00 X-37.5890 Y13.2412 
G01 Z-0.1778 F50.00 
G01 X-37.5890 Y14.6988 F75.00 
G01 X-37.5598 Y14.8454 
G01 X-37.5026 Y14.9835 
G01 X-37.4196 Y15.1078 
G01 X-37.3138 Y15.2136 
G01 X-37.1895 Y15.2966 
G01 X-37.0514 Y15.3538 
G01 X-36.9048 Y15.3830 
G01 X-36.7552 Y15.3830 
G01 X-36.6086 Y15.3538 
G01 X-36.4705 Y15.2966 
G01 X-36.3462 Y15.2136 
G01 X-36.2404 Y15.1078 
G01 X-36.1574 Y14.9835 
G01 X-36.1002 Y14.8454 
G01 X-36.0710 Y14.6988 
G01 X-36.0710 Y13.2412 
G01 X-36.1002 Y13.0946 
G01 X-36.1574 Y12.9565 
G01 X-36.2404 Y12.8322 
G01 X-36.3462 Y12.7264 
G01 X-36.4705 Y12.6434 
G01 X-36.6086 Y12.5862 
G01 X-36.7552 Y12.5570 
G01 X-36.9048 Y12.5570 
G01 X-37.0514 Y12.5862 
G01 X-37.1895 Y12.6434 
G01 X-37.3138 Y12.7264 
G01 X-37.4196 Y12.8322 
G01 X-37.5026 Y12.9565 
G01 X-37.5598 Y13.0946 
G01 X-37.5890 Y13.2412 
G00 Z2.5400 
G00 X-40.1290 Y13.2412 
G01 Z-0.1778 F50.00 
G01 X-40.1290 Y14.6988 F75.00 
G01 X-40.0998 Y14.8454 
G01 X-40.0426 Y14.9835 
G01 X-39.9596 Y15.1078 
G01 X-39.8538 Y15.2136 
G01 X-39.7295 Y15.2966 
G01 X-39.5914 Y15.3538 
G01 X-39.4448 Y15.3830 
G01 X-39.2952 Y15.3830 
G01 X-39.1486 Y15.3538 
G01 X-39.0105 Y15.2966 
G01 X-38.8862 Y15.2136 
G01 X-38.7804 Y15.1078 
G01 X-38.6974 Y14.9835 
G01 X-38.6402 Y14.8454 
G01 X-38.6110 Y14.6988 
G01 X-38.6110 Y13.2412 
G01 X-38.6402 Y13.0946 
G01 X-38.6974 Y12.9565 
G01 X-38.7804 Y12.8322 
G01 X-38.8862 Y12.7264 
G01 X-39.0105 Y12.6434 
G01 X-39.1486 Y12.5862 
G01 X-39.2952 Y12.5570 
G01 X-39.4448 Y12.5570 
G01 X-39.5914 Y12.5862 
G01 X-39.7295 Y12.6434 
G01 X-39.8538 Y12.7264 
G01 X-39.9596 Y12.8322 
G01 X-40.0426 Y12.9565 
G01 X-40.0998 Y13.0946 
G01 X-40.1290 Y13.2412 
G00 Z2.5400 
G00 X-42.6690 Y13.2412 
G01 Z-0.1778 F50.00 
G01 X-42.6690 Y14.6988 F75.00 
G01 X-42.6398 Y14.8454 
G01 X-42.5826 Y14.9835 
G01 X-42.4995 Y15.1078 
G01 X-42.3938 Y15.2136 
G01 X-42.2695 Y15.2966 
G01 X-42.1314 Y15.3538 
G01 X-41.9848 Y15.3830 
G01 X-41.8352 Y15.3830 
G01 X-41.6886 Y15.3538 
G01 X-41.5505 Y15.2966 
G01 X-41.4262 Y15.2136 
G01 X-41.3204 Y15.1078 
G01 X-41.2374 Y14.9835 
G01 X-41.1802 Y14.8454 
G01 X-41.1510 Y14.6988 
G01 X-41.1510 Y13.2412 
G01 X-41.1802 Y13.0946 
G01 X-41.2374 Y12.9565 
G01 X-41.3204 Y12.8322 
G01 X-41.4262 Y12.7264 
G01 X-41.5505 Y12.6434 
G01 X-41.6886 Y12.5862 
G01 X-41.8352 Y12.5570 
G01 X-41.9848 Y12.5570 
G01 X-42.1314 Y12.5862 
G01 X-42.2695 Y12.6434 
G01 X-42.3938 Y12.7264 
G01 X-42.4995 Y12.8322 
G01 X-42.5826 Y12.9565 
G01 X-42.6398 Y13.0946 
G01 X-42.6690 Y13.2412 
G00 Z2.5400 
G00 X-44.9912 Y13.2110 
G01 Z-0.1778 F50.00 
G01 X-46.4488 Y13.2110 F75.00 
G01 X-46.5954 Y13.2402 
G01 X-46.7335 Y13.2974 
G01 X-46.8578 Y13.3804 
G01 X-46.9636 Y13.4862 
G01 X-47.0466 Y13.6105 
G01 X-47.1038 Y13.7486 
G01 X-47.1330 Y13.8952 
G01 X-47.1330 Y14.0448 
G01 X-47.1038 Y14.1914 
G01 X-47.0466 Y14.3295 
G01 X-46.9636 Y14.4538 
G01 X-46.8578 Y14.5596 
G01 X-46.7335 Y14.6426 
G01 X-46.5954 Y14.6998 
G01 X-46.4488 Y14.7290 
G01 X-44.9912 Y14.7290 
G01 X-44.8446 Y14.6998 
G01 X-44.7065 Y14.6426 
G01 X-44.5822 Y14.5596 
G01 X-44.4764 Y14.4538 
G01 X-44.3934 Y14.3295 
G01 X-44.3362 Y14.1914 
G01 X-44.3070 Y14.0448 
G01 X-44.3070 Y13.8952 
G01 X-44.3362 Y13.7486 
G01 X-44.3934 Y13.6105 
G01 X-44.4764 Y13.4862 
G01 X-44.5822 Y13.3804 
G01 X-44.7065 Y13.2974 
G01 X-44.8446 Y13.2402 
G01 X-44.9912 Y13.2110 
G00 Z2.5400 
G00 X-44.9912 Y15.7510 
G01 Z-0.1778 F50.00 
G01 X-46.4488 Y15.7510 F75.00 
G01 X-46.5954 Y15.7802 
G01 X-46.7335 Y15.8374 
G01 X-46.8578 Y15.9204 
G01 X-46.9636 Y16.0262 
G01 X-47.0466 Y16.1505 
G01 X-47.1038 Y16.2886 
G01 X-47.1330 Y16.4352 
G01 X-47.1330 Y16.5848 
G01 X-47.1038 Y16.7314 
G01 X-47.0466 Y16.8695 
G01 X-46.9636 Y16.9938 
G01 X-46.8578 Y17.0996 
G01 X-46.7335 Y17.1826 
G01 X-46.5954 Y17.2398 
G01 X-46.4488 Y17.2690 
G01 X-44.9912 Y17.2690 
G01 X-44.8446 Y17.2398 
G01 X-44.7065 Y17.1826 
G01 X-44.5822 Y17.0996 
G01 X-44.4764 Y16.9938 
G01 X-44.3934 Y16.8695 
G01 X-44.3362 Y16.7314 
G01 X-44.3070 Y16.5848 
G01 X-44.3070 Y16.4352 
G01 X-44.3362 Y16.2886 
G01 X-44.3934 Y16.1505 
G01 X-44.4764 Y16.0262 
G01 X-44.5822 Y15.9204 
G01 X-44.7065 Y15.8374 
G01 X-44.8446 Y15.7802 
G01 X-44.9912 Y15.7510 
G00 Z2.5400 
G00 X-44.9912 Y18.2910 
G01 Z-0.1778 F50.00 
G01 X-46.4488 Y18.2910 F75.00 
G01 X-46.5954 Y18.3202 
G01 X-46.7335 Y18.3774 
G01 X-46.8578 Y18.4604 
G01 X-46.9636 Y18.5662 
G01 X-47.0466 Y18.6905 
G01 X-47.1038 Y18.8286 
G01 X-47.1330 Y18.9752 
G01 X-47.1330 Y19.1248 
G01 X-47.1038 Y19.2714 
G01 X-47.0466 Y19.4095 
G01 X-46.9636 Y19.5338 
G01 X-46.8578 Y19.6395 
G01 X-46.7335 Y19.7226 
G01 X-46.5954 Y19.7798 
G01 X-46.4488 Y19.8090 
G01 X-44.9912 Y19.8090 
G01 X-44.8446 Y19.7798 
G01 X-44.7065 Y19.7226 
G01 X-44.5822 Y19.6395 
G01 X-44.4764 Y19.5338 
G01 X-44.3934 Y19.4095 
G01 X-44.3362 Y19.2714 
G01 X-44.3070 Y19.1248 
G01 X-44.3070 Y18.9752 
G01 X-44.3362 Y18.8286 
G01 X-44.3934 Y18.6905 
G01 X-44.4764 Y18.5662 
G01 X-44.5822 Y18.4604 
G01 X-44.7065 Y18.3774 
G01 X-44.8446 Y18.3202 
G01 X-44.9912 Y18.2910 
G00 Z2.5400 
G00 X-44.9912 Y20.8310 
G01 Z-0.1778 F50.00 
G01 X-46.4488 Y20.8310 F75.00 
G01 X-46.5954 Y20.8602 
G01 X-46.7335 Y20.9174 
G01 X-46.8578 Y21.0004 
G01 X-46.9636 Y21.1062 
G01 X-47.0466 Y21.2305 
G01 X-47.1038 Y21.3686 
G01 X-47.1330 Y21.5152 
G01 X-47.1330 Y21.6648 
G01 X-47.1038 Y21.8114 
G01 X-47.0466 Y21.9495 
G01 X-46.9636 Y22.0738 
G01 X-46.8578 Y22.1796 
G01 X-46.7335 Y22.2626 
G01 X-46.5954 Y22.3198 
G01 X-46.4488 Y22.3490 
G01 X-44.9912 Y22.3490 
G01 X-44.8446 Y22.3198 
G01 X-44.7065 Y22.2626 
G01 X-44.5822 Y22.1796 
G01 X-44.4764 Y22.0738 
G01 X-44.3934 Y21.9495 
G01 X-44.3362 Y21.8114 
G01 X-44.3070 Y21.6648 
G01 X-44.3070 Y21.5152 
G01 X-44.3362 Y21.3686 
G01 X-44.3934 Y21.2305 
G01 X-44.4764 Y21.1062 
G01 X-44.5822 Y21.0004 
G01 X-44.7065 Y20.9174 
G01 X-44.8446 Y20.8602 
G01 X-44.9912 Y20.8310 
G00 Z2.5400 
G00 X-44.9912 Y23.3710 
G01 Z-0.1778 F50.00 
G01 X-46.4488 Y23.3710 F75.00 
G01 X-46.5954 Y23.4002 
G01 X-46.7335 Y23.4574 
G01 X-46.8578 Y23.5404 
G01 X-46.9636 Y23.6462 
G01 X-47.0466 Y23.7705 
G01 X-47.1038 Y23.9086 
G01 X-47.1330 Y24.0552 
G01 X-47.1330 Y24.2048 
G01 X-47.1038 Y24.3514 
G01 X-47.0466 Y24.4895 
G01 X-46.9636 Y24.6138 
G01 X-46.8578 Y24.7196 
G01 X-46.7335 Y24.8026 
G01 X-46.5954 Y24.8598 
G01 X-46.4488 Y24.8890 
G01 X-44.9912 Y24.8890 
G01 X-44.8446 Y24.8598 
G01 X-44.7065 Y24.8026 
G01 X-44.5822 Y24.7196 
G01 X-44.4764 Y24.6138 
G01 X-44.3934 Y24.4895 
G01 X-44.3362 Y24.3514 
G01 X-44.3070 Y24.2048 
G01 X-44.3070 Y24.0552 
G01 X-44.3362 Y23.9086 
G01 X-44.3934 Y23.7705 
G01 X-44.4764 Y23.6462 
G01 X-44.5822 Y23.5404 
G01 X-44.7065 Y23.4574 
G01 X-44.8446 Y23.4002 
G01 X-44.9912 Y23.3710 
G00 Z2.5400 
G00 X-44.9912 Y25.9110 
G01 Z-0.1778 F50.00 
G01 X-46.4488 Y25.9110 F75.00 
G01 X-46.5443 Y25.9300 
G01 X-47.9176 Y25.9300 
G01 X-47.9430 Y25.9046 
G01 X-48.5770 Y25.9046 
G01 X-49.0254 Y26.3530 
G01 X-49.0254 Y26.9870 
G01 X-48.5770 Y27.4354 
G01 X-47.9430 Y27.4354 
G01 X-47.9176 Y27.4100 
G01 X-46.5443 Y27.4100 
G01 X-46.4488 Y27.4290 
G01 X-44.9912 Y27.4290 
G01 X-44.8446 Y27.3998 
G01 X-44.7065 Y27.3426 
G01 X-44.5822 Y27.2596 
G01 X-44.4764 Y27.1538 
G01 X-44.3934 Y27.0295 
G01 X-44.3362 Y26.8914 
G01 X-44.3070 Y26.7448 
G01 X-44.3070 Y26.5952 
G01 X-44.3362 Y26.4486 
G01 X-44.3934 Y26.3105 
G01 X-44.4764 Y26.1862 
G01 X-44.5822 Y26.0804 
G01 X-44.7065 Y25.9974 
G01 X-44.8446 Y25.9402 
G01 X-44.9912 Y25.9110 
G00 Z2.5400 
G00 X-44.9912 Y28.4510 
G01 Z-0.1778 F50.00 
G01 X-46.4488 Y28.4510 F75.00 
G01 X-46.5954 Y28.4802 
G01 X-46.7335 Y28.5374 
G01 X-46.8578 Y28.6204 
G01 X-46.9636 Y28.7262 
G01 X-47.0466 Y28.8505 
G01 X-47.1038 Y28.9886 
G01 X-47.1330 Y29.1352 
G01 X-47.1330 Y29.2848 
G01 X-47.1038 Y29.4314 
G01 X-47.0466 Y29.5695 
G01 X-46.9636 Y29.6938 
G01 X-46.8578 Y29.7995 
G01 X-46.7335 Y29.8826 
G01 X-46.5954 Y29.9398 
G01 X-46.4488 Y29.9690 
G01 X-44.9912 Y29.9690 
G01 X-44.8446 Y29.9398 
G01 X-44.7065 Y29.8826 
G01 X-44.5822 Y29.7995 
G01 X-44.4764 Y29.6938 
G01 X-44.3934 Y29.5695 
G01 X-44.3362 Y29.4314 
G01 X-44.3070 Y29.2848 
G01 X-44.3070 Y29.1352 
G01 X-44.3362 Y28.9886 
G01 X-44.3934 Y28.8505 
G01 X-44.4764 Y28.7262 
G01 X-44.5822 Y28.6204 
G01 X-44.7065 Y28.5374 
G01 X-44.8446 Y28.4802 
G01 X-44.9912 Y28.4510 
G00 Z2.5400 
G00 X-44.9912 Y30.9910 
G01 Z-0.1778 F50.00 
G01 X-46.4488 Y30.9910 F75.00 
G01 X-46.5954 Y31.0202 
G01 X-46.7335 Y31.0774 
G01 X-46.8578 Y31.1604 
G01 X-46.9636 Y31.2662 
G01 X-47.0466 Y31.3905 
G01 X-47.1038 Y31.5286 
G01 X-47.1330 Y31.6752 
G01 X-47.1330 Y31.8248 
G01 X-47.1038 Y31.9714 
G01 X-47.0466 Y32.1095 
G01 X-46.9636 Y32.2338 
G01 X-46.8578 Y32.3396 
G01 X-46.7335 Y32.4226 
G01 X-46.5954 Y32.4798 
G01 X-46.4488 Y32.5090 
G01 X-44.9912 Y32.5090 
G01 X-44.8446 Y32.4798 
G01 X-44.7065 Y32.4226 
G01 X-44.5822 Y32.3396 
G01 X-44.4764 Y32.2338 
G01 X-44.3934 Y32.1095 
G01 X-44.3362 Y31.9714 
G01 X-44.3070 Y31.8248 
G01 X-44.3070 Y31.6752 
G01 X-44.3362 Y31.5286 
G01 X-44.3934 Y31.3905 
G01 X-44.4764 Y31.2662 
G01 X-44.5822 Y31.1604 
G01 X-44.7065 Y31.0774 
G01 X-44.8446 Y31.0202 
G01 X-44.9912 Y30.9910 
G00 Z2.5400 
G00 X-44.9912 Y36.0710 
G01 Z-0.1778 F50.00 
G01 X-46.4488 Y36.0710 F75.00 
G01 X-46.5954 Y36.1002 
G01 X-46.7335 Y36.1574 
G01 X-46.8578 Y36.2404 
G01 X-46.9636 Y36.3462 
G01 X-47.0466 Y36.4705 
G01 X-47.1038 Y36.6086 
G01 X-47.1330 Y36.7552 
G01 X-47.1330 Y36.9048 
G01 X-47.1038 Y37.0514 
G01 X-47.0466 Y37.1895 
G01 X-46.9636 Y37.3138 
G01 X-46.8578 Y37.4196 
G01 X-46.7335 Y37.5026 
G01 X-46.5954 Y37.5598 
G01 X-46.4488 Y37.5890 
G01 X-44.9912 Y37.5890 
G01 X-44.8446 Y37.5598 
G01 X-44.7065 Y37.5026 
G01 X-44.5822 Y37.4196 
G01 X-44.4764 Y37.3138 
G01 X-44.3934 Y37.1895 
G01 X-44.3362 Y37.0514 
G01 X-44.3070 Y36.9048 
G01 X-44.3070 Y36.7552 
G01 X-44.3362 Y36.6086 
G01 X-44.3934 Y36.4705 
G01 X-44.4764 Y36.3462 
G01 X-44.5822 Y36.2404 
G01 X-44.7065 Y36.1574 
G01 X-44.8446 Y36.1002 
G01 X-44.9912 Y36.0710 
G00 Z2.5400 
G00 X-44.9912 Y41.1510 
G01 Z-0.1778 F50.00 
G01 X-46.4488 Y41.1510 F75.00 
G01 X-46.5443 Y41.1700 
G01 X-48.3329 Y41.1700 
G01 X-48.4759 Y41.1984 
G01 X-48.6105 Y41.2542 
G01 X-48.7317 Y41.3352 
G01 X-48.8348 Y41.4383 
G01 X-48.9158 Y41.5595 
G01 X-48.9716 Y41.6941 
G01 X-49.0000 Y41.8371 
G01 X-49.0000 Y48.3149 
G01 X-49.0283 Y48.3573 
G01 X-49.0937 Y48.5151 
G01 X-49.1270 Y48.6826 
G01 X-49.1270 Y50.3774 
G01 X-49.0937 Y50.5449 
G01 X-49.0283 Y50.7027 
G01 X-48.9334 Y50.8447 
G01 X-48.8127 Y50.9654 
G01 X-48.6707 Y51.0603 
G01 X-48.5129 Y51.1257 
G01 X-48.3454 Y51.1590 
G01 X-48.1746 Y51.1590 
G01 X-48.0071 Y51.1257 
G01 X-47.8493 Y51.0603 
G01 X-47.7073 Y50.9654 
G01 X-47.5866 Y50.8447 
G01 X-47.4917 Y50.7027 
G01 X-47.4263 Y50.5449 
G01 X-47.3930 Y50.3774 
G01 X-47.3930 Y48.6826 
G01 X-47.4263 Y48.5151 
G01 X-47.4917 Y48.3573 
G01 X-47.5200 Y48.3149 
G01 X-47.5200 Y44.7565 
G01 X-46.4152 Y43.6517 
G01 X-45.4325 Y42.6690 
G01 X-44.9912 Y42.6690 
G01 X-44.8446 Y42.6398 
G01 X-44.7065 Y42.5826 
G01 X-44.5822 Y42.4995 
G01 X-44.4764 Y42.3938 
G01 X-44.3934 Y42.2695 
G01 X-44.3362 Y42.1314 
G01 X-44.3070 Y41.9848 
G01 X-44.3070 Y41.8352 
G01 X-44.3362 Y41.6886 
G01 X-44.3934 Y41.5505 
G01 X-44.4764 Y41.4262 
G01 X-44.5822 Y41.3204 
G01 X-44.7065 Y41.2374 
G01 X-44.8446 Y41.1802 
G01 X-44.9912 Y41.1510 
G00 Z2.5400 
G00 X-29.7512 Y13.2110 
G01 Z-0.1778 F50.00 
G01 X-31.2088 Y13.2110 F75.00 
G01 X-31.3554 Y13.2402 
G01 X-31.4935 Y13.2974 
G01 X-31.6178 Y13.3804 
G01 X-31.7236 Y13.4862 
G01 X-31.8066 Y13.6105 
G01 X-31.8638 Y13.7486 
G01 X-31.8930 Y13.8952 
G01 X-31.8930 Y14.0448 
G01 X-31.8638 Y14.1914 
G01 X-31.8066 Y14.3295 
G01 X-31.7236 Y14.4538 
G01 X-31.6178 Y14.5596 
G01 X-31.4935 Y14.6426 
G01 X-31.3554 Y14.6998 
G01 X-31.2088 Y14.7290 
G01 X-29.7512 Y14.7290 
G01 X-29.6046 Y14.6998 
G01 X-29.4665 Y14.6426 
G01 X-29.3422 Y14.5596 
G01 X-29.2364 Y14.4538 
G01 X-29.1534 Y14.3295 
G01 X-29.0962 Y14.1914 
G01 X-29.0670 Y14.0448 
G01 X-29.0670 Y13.8952 
G01 X-29.0962 Y13.7486 
G01 X-29.1534 Y13.6105 
G01 X-29.2364 Y13.4862 
G01 X-29.3422 Y13.3804 
G01 X-29.4665 Y13.2974 
G01 X-29.6046 Y13.2402 
G01 X-29.7512 Y13.2110 
G00 Z2.5400 
G00 X-29.7512 Y18.2910 
G01 Z-0.1778 F50.00 
G01 X-31.2088 Y18.2910 F75.00 
G01 X-31.3554 Y18.3202 
G01 X-31.4935 Y18.3774 
G01 X-31.6178 Y18.4604 
G01 X-31.7236 Y18.5662 
G01 X-31.8066 Y18.6905 
G01 X-31.8638 Y18.8286 
G01 X-31.8930 Y18.9752 
G01 X-31.8930 Y19.1248 
G01 X-31.8638 Y19.2714 
G01 X-31.8066 Y19.4095 
G01 X-31.7236 Y19.5338 
G01 X-31.6178 Y19.6395 
G01 X-31.4935 Y19.7226 
G01 X-31.3554 Y19.7798 
G01 X-31.2088 Y19.8090 
G01 X-29.7512 Y19.8090 
G01 X-29.6046 Y19.7798 
G01 X-29.4665 Y19.7226 
G01 X-29.3422 Y19.6395 
G01 X-29.2364 Y19.5338 
G01 X-29.1534 Y19.4095 
G01 X-29.0962 Y19.2714 
G01 X-29.0670 Y19.1248 
G01 X-29.0670 Y18.9752 
G01 X-29.0962 Y18.8286 
G01 X-29.1534 Y18.6905 
G01 X-29.2364 Y18.5662 
G01 X-29.3422 Y18.4604 
G01 X-29.4665 Y18.3774 
G01 X-29.6046 Y18.3202 
G01 X-29.7512 Y18.2910 
G00 Z2.5400 
G00 X-29.7512 Y20.8310 
G01 Z-0.1778 F50.00 
G01 X-31.2088 Y20.8310 F75.00 
G01 X-31.3554 Y20.8602 
G01 X-31.4935 Y20.9174 
G01 X-31.6178 Y21.0004 
G01 X-31.7236 Y21.1062 
G01 X-31.8066 Y21.2305 
G01 X-31.8638 Y21.3686 
G01 X-31.8930 Y21.5152 
G01 X-31.8930 Y21.6648 
G01 X-31.8638 Y21.8114 
G01 X-31.8066 Y21.9495 
G01 X-31.7236 Y22.0738 
G01 X-31.6178 Y22.1796 
G01 X-31.4935 Y22.2626 
G01 X-31.3554 Y22.3198 
G01 X-31.2088 Y22.3490 
G01 X-29.7512 Y22.3490 
G01 X-29.6046 Y22.3198 
G01 X-29.4665 Y22.2626 
G01 X-29.3422 Y22.1796 
G01 X-29.2364 Y22.0738 
G01 X-29.1534 Y21.9495 
G01 X-29.0962 Y21.8114 
G01 X-29.0670 Y21.6648 
G01 X-29.0670 Y21.5152 
G01 X-29.0962 Y21.3686 
G01 X-29.1534 Y21.2305 
G01 X-29.2364 Y21.1062 
G01 X-29.3422 Y21.0004 
G01 X-29.4665 Y20.9174 
G01 X-29.6046 Y20.8602 
G01 X-29.7512 Y20.8310 
G00 Z2.5400 
G00 X-29.7512 Y23.3710 
G01 Z-0.1778 F50.00 
G01 X-31.2088 Y23.3710 F75.00 
G01 X-31.3554 Y23.4002 
G01 X-31.4935 Y23.4574 
G01 X-31.6178 Y23.5404 
G01 X-31.7236 Y23.6462 
G01 X-31.8066 Y23.7705 
G01 X-31.8638 Y23.9086 
G01 X-31.8930 Y24.0552 
G01 X-31.8930 Y24.2048 
G01 X-31.8638 Y24.3514 
G01 X-31.8066 Y24.4895 
G01 X-31.7236 Y24.6138 
G01 X-31.6178 Y24.7196 
G01 X-31.4935 Y24.8026 
G01 X-31.3554 Y24.8598 
G01 X-31.2088 Y24.8890 
G01 X-29.7512 Y24.8890 
G01 X-29.6557 Y24.8700 
G01 X-9.1965 Y24.8700 
G01 X-5.9724 Y28.0941 
G01 X-5.9724 Y35.4059 
G01 X-11.9017 Y41.3352 
G01 X-12.0048 Y41.4383 
G01 X-12.0858 Y41.5595 
G01 X-12.1416 Y41.6941 
G01 X-12.1700 Y41.8371 
G01 X-12.1700 Y49.0439 
G01 X-12.2970 Y49.1709 
G01 X-12.2970 Y49.8891 
G01 X-11.7891 Y50.3970 
G01 X-11.0709 Y50.3970 
G01 X-10.5630 Y49.8891 
G01 X-10.5630 Y49.1709 
G01 X-10.6900 Y49.0439 
G01 X-10.6900 Y42.2165 
G01 X-4.7607 Y36.2872 
G01 X-4.6576 Y36.1841 
G01 X-4.5766 Y36.0629 
G01 X-4.5208 Y35.9282 
G01 X-4.4924 Y35.7853 
G01 X-4.4924 Y27.7147 
G01 X-4.5208 Y27.5717 
G01 X-4.5766 Y27.4371 
G01 X-4.6576 Y27.3159 
G01 X-4.7607 Y27.2128 
G01 X-8.4183 Y23.5552 
G01 X-8.5395 Y23.4742 
G01 X-8.6741 Y23.4184 
G01 X-8.8171 Y23.3900 
G01 X-29.6557 Y23.3900 
G01 X-29.7512 Y23.3710 
G00 Z2.5400 
G00 X-29.7512 Y28.4510 
G01 Z-0.1778 F50.00 
G01 X-31.2088 Y28.4510 F75.00 
G01 X-31.3554 Y28.4802 
G01 X-31.4935 Y28.5374 
G01 X-31.6178 Y28.6204 
G01 X-31.7236 Y28.7262 
G01 X-31.8066 Y28.8505 
G01 X-31.8638 Y28.9886 
G01 X-31.8930 Y29.1352 
G01 X-31.8930 Y29.2848 
G01 X-31.8638 Y29.4314 
G01 X-31.8066 Y29.5695 
G01 X-31.7236 Y29.6938 
G01 X-31.6178 Y29.7995 
G01 X-31.4935 Y29.8826 
G01 X-31.3554 Y29.9398 
G01 X-31.2088 Y29.9690 
G01 X-29.7512 Y29.9690 
G01 X-29.6046 Y29.9398 
G01 X-29.4665 Y29.8826 
G01 X-29.3422 Y29.7995 
G01 X-29.2364 Y29.6938 
G01 X-29.1534 Y29.5695 
G01 X-29.0962 Y29.4314 
G01 X-29.0670 Y29.2848 
G01 X-29.0670 Y29.1352 
G01 X-29.0962 Y28.9886 
G01 X-29.1534 Y28.8505 
G01 X-29.2364 Y28.7262 
G01 X-29.3422 Y28.6204 
G01 X-29.4665 Y28.5374 
G01 X-29.6046 Y28.4802 
G01 X-29.7512 Y28.4510 
G00 Z2.5400 
G00 X-29.7512 Y30.9910 
G01 Z-0.1778 F50.00 
G01 X-31.2088 Y30.9910 F75.00 
G01 X-31.3554 Y31.0202 
G01 X-31.4935 Y31.0774 
G01 X-31.6178 Y31.1604 
G01 X-31.7236 Y31.2662 
G01 X-31.8066 Y31.3905 
G01 X-31.8638 Y31.5286 
G01 X-31.8930 Y31.6752 
G01 X-31.8930 Y31.8248 
G01 X-31.8638 Y31.9714 
G01 X-31.8066 Y32.1095 
G01 X-31.7236 Y32.2338 
G01 X-31.6178 Y32.3396 
G01 X-31.4935 Y32.4226 
G01 X-31.3554 Y32.4798 
G01 X-31.2088 Y32.5090 
G01 X-29.7512 Y32.5090 
G01 X-29.6046 Y32.4798 
G01 X-29.4665 Y32.4226 
G01 X-29.3422 Y32.3396 
G01 X-29.2364 Y32.2338 
G01 X-29.1534 Y32.1095 
G01 X-29.0962 Y31.9714 
G01 X-29.0670 Y31.8248 
G01 X-29.0670 Y31.6752 
G01 X-29.0962 Y31.5286 
G01 X-29.1534 Y31.3905 
G01 X-29.2364 Y31.2662 
G01 X-29.3422 Y31.1604 
G01 X-29.4665 Y31.0774 
G01 X-29.6046 Y31.0202 
G01 X-29.7512 Y30.9910 
G00 Z2.5400 
G00 X-29.7512 Y36.0710 
G01 Z-0.1778 F50.00 
G01 X-31.2088 Y36.0710 F75.00 
G01 X-31.3554 Y36.1002 
G01 X-31.4935 Y36.1574 
G01 X-31.6178 Y36.2404 
G01 X-31.7236 Y36.3462 
G01 X-31.8066 Y36.4705 
G01 X-31.8638 Y36.6086 
G01 X-31.8930 Y36.7552 
G01 X-31.8930 Y36.9048 
G01 X-31.8638 Y37.0514 
G01 X-31.8066 Y37.1895 
G01 X-31.7236 Y37.3138 
G01 X-31.6178 Y37.4196 
G01 X-31.4935 Y37.5026 
G01 X-31.3554 Y37.5598 
G01 X-31.2088 Y37.5890 
G01 X-29.7512 Y37.5890 
G01 X-29.6046 Y37.5598 
G01 X-29.4665 Y37.5026 
G01 X-29.3422 Y37.4196 
G01 X-29.2364 Y37.3138 
G01 X-29.1534 Y37.1895 
G01 X-29.0962 Y37.0514 
G01 X-29.0670 Y36.9048 
G01 X-29.0670 Y36.7552 
G01 X-29.0962 Y36.6086 
G01 X-29.1534 Y36.4705 
G01 X-29.2364 Y36.3462 
G01 X-29.3422 Y36.2404 
G01 X-29.4665 Y36.1574 
G01 X-29.6046 Y36.1002 
G01 X-29.7512 Y36.0710 
G00 Z2.5400 
G00 X-29.7512 Y38.6110 
G01 Z-0.1778 F50.00 
G01 X-31.2088 Y38.6110 F75.00 
G01 X-31.3554 Y38.6402 
G01 X-31.4935 Y38.6974 
G01 X-31.6178 Y38.7804 
G01 X-31.7236 Y38.8862 
G01 X-31.8066 Y39.0105 
G01 X-31.8638 Y39.1486 
G01 X-31.8930 Y39.2952 
G01 X-31.8930 Y39.4448 
G01 X-31.8638 Y39.5914 
G01 X-31.8066 Y39.7295 
G01 X-31.7236 Y39.8538 
G01 X-31.6178 Y39.9596 
G01 X-31.4935 Y40.0426 
G01 X-31.3554 Y40.0998 
G01 X-31.2088 Y40.1290 
G01 X-29.7512 Y40.1290 
G01 X-29.6557 Y40.1100 
G01 X-22.7871 Y40.1100 
G01 X-22.6441 Y40.0816 
G01 X-22.5095 Y40.0258 
G01 X-22.3883 Y39.9448 
G01 X-22.2250 Y39.7815 
G01 X-22.0617 Y39.9448 
G01 X-21.9405 Y40.0258 
G01 X-21.8058 Y40.0816 
G01 X-21.6629 Y40.1100 
G01 X-21.5171 Y40.1100 
G01 X-21.3741 Y40.0816 
G01 X-21.2395 Y40.0258 
G01 X-21.1183 Y39.9448 
G01 X-21.0152 Y39.8417 
G01 X-20.9342 Y39.7205 
G01 X-20.8784 Y39.5859 
G01 X-20.8500 Y39.4429 
G01 X-20.8500 Y39.2971 
G01 X-20.8784 Y39.1541 
G01 X-20.9342 Y39.0195 
G01 X-21.0152 Y38.8983 
G01 X-21.1785 Y38.7350 
G01 X-21.1183 Y38.6748 
G01 X-21.0152 Y38.5717 
G01 X-20.9342 Y38.4505 
G01 X-20.8784 Y38.3159 
G01 X-20.8500 Y38.1729 
G01 X-20.8500 Y36.7571 
G01 X-20.8784 Y36.6141 
G01 X-20.9342 Y36.4795 
G01 X-21.0152 Y36.3583 
G01 X-21.1183 Y36.2552 
G01 X-21.2395 Y36.1742 
G01 X-21.3741 Y36.1184 
G01 X-21.5171 Y36.0900 
G01 X-25.4729 Y36.0900 
G01 X-25.6159 Y36.1184 
G01 X-25.7505 Y36.1742 
G01 X-25.8717 Y36.2552 
G01 X-25.9748 Y36.3583 
G01 X-26.0558 Y36.4795 
G01 X-26.1116 Y36.6141 
G01 X-26.1400 Y36.7571 
G01 X-26.1400 Y38.6300 
G01 X-29.6557 Y38.6300 
G01 X-29.7512 Y38.6110 
G00 Z2.5400 
G00 X-43.6910 Y45.1788 
G01 Z-0.1778 F50.00 
G01 X-43.6910 Y43.7212 F75.00 
G01 X-43.7202 Y43.5746 
G01 X-43.7774 Y43.4365 
G01 X-43.8604 Y43.3122 
G01 X-43.9662 Y43.2064 
G01 X-44.0905 Y43.1234 
G01 X-44.2286 Y43.0662 
G01 X-44.3752 Y43.0370 
G01 X-44.5248 Y43.0370 
G01 X-44.6714 Y43.0662 
G01 X-44.8095 Y43.1234 
G01 X-44.9338 Y43.2064 
G01 X-45.0396 Y43.3122 
G01 X-45.1226 Y43.4365 
G01 X-45.1798 Y43.5746 
G01 X-45.2090 Y43.7212 
G01 X-45.2090 Y45.1788 
G01 X-45.1798 Y45.3254 
G01 X-45.1226 Y45.4635 
G01 X-45.0396 Y45.5878 
G01 X-44.9338 Y45.6936 
G01 X-44.8095 Y45.7766 
G01 X-44.6714 Y45.8338 
G01 X-44.5248 Y45.8630 
G01 X-44.3752 Y45.8630 
G01 X-44.2286 Y45.8338 
G01 X-44.0905 Y45.7766 
G01 X-43.9662 Y45.6936 
G01 X-43.8604 Y45.5878 
G01 X-43.7774 Y45.4635 
G01 X-43.7202 Y45.3254 
G01 X-43.6910 Y45.1788 
G00 Z2.5400 
G00 X-41.1510 Y45.1788 
G01 Z-0.1778 F50.00 
G01 X-41.1510 Y43.7212 F75.00 
G01 X-41.1802 Y43.5746 
G01 X-41.2374 Y43.4365 
G01 X-41.3204 Y43.3122 
G01 X-41.4262 Y43.2064 
G01 X-41.5505 Y43.1234 
G01 X-41.6886 Y43.0662 
G01 X-41.8352 Y43.0370 
G01 X-41.9848 Y43.0370 
G01 X-42.1314 Y43.0662 
G01 X-42.2695 Y43.1234 
G01 X-42.3938 Y43.2064 
G01 X-42.4995 Y43.3122 
G01 X-42.5826 Y43.4365 
G01 X-42.6398 Y43.5746 
G01 X-42.6690 Y43.7212 
G01 X-42.6690 Y45.1788 
G01 X-42.6398 Y45.3254 
G01 X-42.5826 Y45.4635 
G01 X-42.4995 Y45.5878 
G01 X-42.3938 Y45.6936 
G01 X-42.2695 Y45.7766 
G01 X-42.1314 Y45.8338 
G01 X-41.9848 Y45.8630 
G01 X-41.8352 Y45.8630 
G01 X-41.6886 Y45.8338 
G01 X-41.5505 Y45.7766 
G01 X-41.4262 Y45.6936 
G01 X-41.3204 Y45.5878 
G01 X-41.2374 Y45.4635 
G01 X-41.1802 Y45.3254 
G01 X-41.1510 Y45.1788 
G00 Z2.5400 
G00 X-38.6110 Y45.1788 
G01 Z-0.1778 F50.00 
G01 X-38.6110 Y43.7212 F75.00 
G01 X-38.6402 Y43.5746 
G01 X-38.6974 Y43.4365 
G01 X-38.7804 Y43.3122 
G01 X-38.8862 Y43.2064 
G01 X-39.0105 Y43.1234 
G01 X-39.1486 Y43.0662 
G01 X-39.2952 Y43.0370 
G01 X-39.4448 Y43.0370 
G01 X-39.5914 Y43.0662 
G01 X-39.7295 Y43.1234 
G01 X-39.8538 Y43.2064 
G01 X-39.9596 Y43.3122 
G01 X-40.0426 Y43.4365 
G01 X-40.0998 Y43.5746 
G01 X-40.1290 Y43.7212 
G01 X-40.1290 Y45.1788 
G01 X-40.0998 Y45.3254 
G01 X-40.0426 Y45.4635 
G01 X-39.9596 Y45.5878 
G01 X-39.8538 Y45.6936 
G01 X-39.7295 Y45.7766 
G01 X-39.5914 Y45.8338 
G01 X-39.4448 Y45.8630 
G01 X-39.2952 Y45.8630 
G01 X-39.1486 Y45.8338 
G01 X-39.0105 Y45.7766 
G01 X-38.8862 Y45.6936 
G01 X-38.7804 Y45.5878 
G01 X-38.6974 Y45.4635 
G01 X-38.6402 Y45.3254 
G01 X-38.6110 Y45.1788 
G00 Z2.5400 
G00 X-36.0710 Y45.1788 
G01 Z-0.1778 F50.00 
G01 X-36.0710 Y43.7212 F75.00 
G01 X-36.1002 Y43.5746 
G01 X-36.1574 Y43.4365 
G01 X-36.2404 Y43.3122 
G01 X-36.3462 Y43.2064 
G01 X-36.4705 Y43.1234 
G01 X-36.6086 Y43.0662 
G01 X-36.7552 Y43.0370 
G01 X-36.9048 Y43.0370 
G01 X-37.0514 Y43.0662 
G01 X-37.1895 Y43.1234 
G01 X-37.3138 Y43.2064 
G01 X-37.4196 Y43.3122 
G01 X-37.5026 Y43.4365 
G01 X-37.5598 Y43.5746 
G01 X-37.5890 Y43.7212 
G01 X-37.5890 Y45.1788 
G01 X-37.5598 Y45.3254 
G01 X-37.5026 Y45.4635 
G01 X-37.4196 Y45.5878 
G01 X-37.3138 Y45.6936 
G01 X-37.1895 Y45.7766 
G01 X-37.0514 Y45.8338 
G01 X-36.9048 Y45.8630 
G01 X-36.7552 Y45.8630 
G01 X-36.6086 Y45.8338 
G01 X-36.4705 Y45.7766 
G01 X-36.3462 Y45.6936 
G01 X-36.2404 Y45.5878 
G01 X-36.1574 Y45.4635 
G01 X-36.1002 Y45.3254 
G01 X-36.0710 Y45.1788 
G00 Z2.5400 
G00 X-33.5310 Y45.1788 
G01 Z-0.1778 F50.00 
G01 X-33.5310 Y43.7212 F75.00 
G01 X-33.5602 Y43.5746 
G01 X-33.6174 Y43.4365 
G01 X-33.7004 Y43.3122 
G01 X-33.8062 Y43.2064 
G01 X-33.9305 Y43.1234 
G01 X-34.0686 Y43.0662 
G01 X-34.2152 Y43.0370 
G01 X-34.3648 Y43.0370 
G01 X-34.5114 Y43.0662 
G01 X-34.6495 Y43.1234 
G01 X-34.7738 Y43.2064 
G01 X-34.8796 Y43.3122 
G01 X-34.9626 Y43.4365 
G01 X-35.0198 Y43.5746 
G01 X-35.0490 Y43.7212 
G01 X-35.0490 Y45.1788 
G01 X-35.0198 Y45.3254 
G01 X-34.9626 Y45.4635 
G01 X-34.8796 Y45.5878 
G01 X-34.7738 Y45.6936 
G01 X-34.6495 Y45.7766 
G01 X-34.5114 Y45.8338 
G01 X-34.3648 Y45.8630 
G01 X-34.2152 Y45.8630 
G01 X-34.0686 Y45.8338 
G01 X-33.9305 Y45.7766 
G01 X-33.8062 Y45.6936 
G01 X-33.7004 Y45.5878 
G01 X-33.6174 Y45.4635 
G01 X-33.5602 Y45.3254 
G01 X-33.5310 Y45.1788 
G00 Z2.5400 
G00 X-30.9910 Y45.1788 
G01 Z-0.1778 F50.00 
G01 X-30.9910 Y43.7212 F75.00 
G01 X-31.0202 Y43.5746 
G01 X-31.0774 Y43.4365 
G01 X-31.1604 Y43.3122 
G01 X-31.2662 Y43.2064 
G01 X-31.3905 Y43.1234 
G01 X-31.5286 Y43.0662 
G01 X-31.6752 Y43.0370 
G01 X-31.8248 Y43.0370 
G01 X-31.9714 Y43.0662 
G01 X-32.1095 Y43.1234 
G01 X-32.2338 Y43.2064 
G01 X-32.3396 Y43.3122 
G01 X-32.4226 Y43.4365 
G01 X-32.4798 Y43.5746 
G01 X-32.5090 Y43.7212 
G01 X-32.5090 Y45.1788 
G01 X-32.4798 Y45.3254 
G01 X-32.4226 Y45.4635 
G01 X-32.3396 Y45.5878 
G01 X-32.2338 Y45.6936 
G01 X-32.1095 Y45.7766 
G01 X-31.9714 Y45.8338 
G01 X-31.8248 Y45.8630 
G01 X-31.6752 Y45.8630 
G01 X-31.5286 Y45.8338 
G01 X-31.3905 Y45.7766 
G01 X-31.2662 Y45.6936 
G01 X-31.1604 Y45.5878 
G01 X-31.0774 Y45.4635 
G01 X-31.0202 Y45.3254 
G01 X-30.9910 Y45.1788 
G00 Z2.5400 
G00 X-11.8330 Y16.0874 
G01 Z-0.1778 F50.00 
G01 X-11.8330 Y14.3926 F75.00 
G01 X-11.8663 Y14.2251 
G01 X-11.9317 Y14.0673 
G01 X-11.9600 Y14.0249 
G01 X-11.9600 Y13.0065 
G01 X-8.5835 Y9.6300 
G01 X-6.2771 Y9.6300 
G01 X-6.1341 Y9.6016 
G01 X-5.9995 Y9.5458 
G01 X-5.8783 Y9.4648 
G01 X-5.7752 Y9.3617 
G01 X-5.6942 Y9.2405 
G01 X-5.6384 Y9.1059 
G01 X-5.6100 Y8.9629 
G01 X-5.6100 Y7.5471 
G01 X-5.6384 Y7.4041 
G01 X-5.6942 Y7.2695 
G01 X-5.7752 Y7.1483 
G01 X-5.8783 Y7.0452 
G01 X-5.9995 Y6.9642 
G01 X-6.1341 Y6.9084 
G01 X-6.2771 Y6.8800 
G01 X-8.9629 Y6.8800 
G01 X-9.1059 Y6.9084 
G01 X-9.2405 Y6.9642 
G01 X-9.3617 Y7.0452 
G01 X-10.7348 Y8.4183 
G01 X-10.8158 Y8.5395 
G01 X-10.8716 Y8.6741 
G01 X-10.9000 Y8.8171 
G01 X-10.9000 Y8.9629 
G01 X-10.8716 Y9.1059 
G01 X-10.8158 Y9.2405 
G01 X-10.7348 Y9.3617 
G01 X-10.6317 Y9.4648 
G01 X-10.5595 Y9.5130 
G01 X-13.1717 Y12.1252 
G01 X-13.2748 Y12.2283 
G01 X-13.3558 Y12.3495 
G01 X-13.4116 Y12.4841 
G01 X-13.4400 Y12.6271 
G01 X-13.4400 Y14.0249 
G01 X-13.4683 Y14.0673 
G01 X-13.5337 Y14.2251 
G01 X-13.5670 Y14.3926 
G01 X-13.5670 Y16.0874 
G01 X-13.5337 Y16.2549 
G01 X-13.4683 Y16.4127 
G01 X-13.3734 Y16.5547 
G01 X-13.2527 Y16.6754 
G01 X-13.1107 Y16.7703 
G01 X-12.9529 Y16.8357 
G01 X-12.7854 Y16.8690 
G01 X-12.6146 Y16.8690 
G01 X-12.4471 Y16.8357 
G01 X-12.2893 Y16.7703 
G01 X-12.1473 Y16.6754 
G01 X-12.0266 Y16.5547 
G01 X-11.9317 Y16.4127 
G01 X-11.8663 Y16.2549 
G01 X-11.8330 Y16.0874 
G00 Z2.5400 
G00 X-9.2930 Y16.0874 
G01 Z-0.1778 F50.00 
G01 X-9.2930 Y14.3926 F75.00 
G01 X-9.3263 Y14.2251 
G01 X-9.3917 Y14.0673 
G01 X-9.4866 Y13.9253 
G01 X-9.6073 Y13.8046 
G01 X-9.7493 Y13.7097 
G01 X-9.9071 Y13.6443 
G01 X-10.0746 Y13.6110 
G01 X-10.2454 Y13.6110 
G01 X-10.4129 Y13.6443 
G01 X-10.5707 Y13.7097 
G01 X-10.7127 Y13.8046 
G01 X-10.8334 Y13.9253 
G01 X-10.9283 Y14.0673 
G01 X-10.9937 Y14.2251 
G01 X-11.0270 Y14.3926 
G01 X-11.0270 Y16.0874 
G01 X-10.9937 Y16.2549 
G01 X-10.9283 Y16.4127 
G01 X-10.9000 Y16.4551 
G01 X-10.9000 Y18.7435 
G01 X-11.7365 Y19.5800 
G01 X-20.0135 Y19.5800 
G01 X-23.5552 Y16.0383 
G01 X-23.6583 Y15.9352 
G01 X-23.7795 Y15.8542 
G01 X-23.9141 Y15.7984 
G01 X-24.0571 Y15.7700 
G01 X-29.6557 Y15.7700 
G01 X-29.7512 Y15.7510 
G01 X-31.2088 Y15.7510 
G01 X-31.3554 Y15.7802 
G01 X-31.4935 Y15.8374 
G01 X-31.6178 Y15.9204 
G01 X-31.7236 Y16.0262 
G01 X-31.8066 Y16.1505 
G01 X-31.8638 Y16.2886 
G01 X-31.8930 Y16.4352 
G01 X-31.8930 Y16.5848 
G01 X-31.8638 Y16.7314 
G01 X-31.8066 Y16.8695 
G01 X-31.7236 Y16.9938 
G01 X-31.6178 Y17.0996 
G01 X-31.4935 Y17.1826 
G01 X-31.3554 Y17.2398 
G01 X-31.2088 Y17.2690 
G01 X-29.7512 Y17.2690 
G01 X-29.6557 Y17.2500 
G01 X-24.4365 Y17.2500 
G01 X-20.8948 Y20.7917 
G01 X-20.7917 Y20.8948 
G01 X-20.6705 Y20.9758 
G01 X-20.5358 Y21.0316 
G01 X-20.3929 Y21.0600 
G01 X-11.3571 Y21.0600 
G01 X-11.2141 Y21.0316 
G01 X-11.0795 Y20.9758 
G01 X-10.9583 Y20.8948 
G01 X-10.8552 Y20.7917 
G01 X-9.5852 Y19.5217 
G01 X-9.5042 Y19.4005 
G01 X-9.4484 Y19.2659 
G01 X-9.4200 Y19.1229 
G01 X-9.4200 Y16.4551 
G01 X-9.3917 Y16.4127 
G01 X-9.3263 Y16.2549 
G01 X-9.2930 Y16.0874 
G00 Z2.5400 
G00 X-61.3826 Y25.8030 
G01 Z-0.1778 F50.00 
G01 X-63.0774 Y25.8030 F75.00 
G01 X-63.2449 Y25.8363 
G01 X-63.4027 Y25.9017 
G01 X-63.5447 Y25.9966 
G01 X-63.6654 Y26.1173 
G01 X-63.7603 Y26.2593 
G01 X-63.8257 Y26.4171 
G01 X-63.8590 Y26.5846 
G01 X-63.8590 Y26.7554 
G01 X-63.8257 Y26.9229 
G01 X-63.7603 Y27.0807 
G01 X-63.6654 Y27.2227 
G01 X-63.5447 Y27.3434 
G01 X-63.4027 Y27.4383 
G01 X-63.2449 Y27.5037 
G01 X-63.0774 Y27.5370 
G01 X-61.3826 Y27.5370 
G01 X-61.2151 Y27.5037 
G01 X-61.0573 Y27.4383 
G01 X-61.0149 Y27.4100 
G01 X-58.7624 Y27.4100 
G01 X-58.7370 Y27.4354 
G01 X-58.1030 Y27.4354 
G01 X-57.6546 Y26.9870 
G01 X-57.6546 Y26.3530 
G01 X-58.1030 Y25.9046 
G01 X-58.7370 Y25.9046 
G01 X-58.7624 Y25.9300 
G01 X-61.0149 Y25.9300 
G01 X-61.0573 Y25.9017 
G01 X-61.2151 Y25.8363 
G01 X-61.3826 Y25.8030 
G00 Z2.5400 
G00 X-4.1165 Y51.3300 
G01 Z-0.1778 F50.00 
G01 X-8.4039 Y51.3300 F75.00 
G01 X-8.5309 Y51.2030 
G01 X-9.2491 Y51.2030 
G01 X-9.7570 Y51.7109 
G01 X-9.7570 Y52.4291 
G01 X-9.2491 Y52.9370 
G01 X-8.5309 Y52.9370 
G01 X-8.4039 Y52.8100 
G01 X-3.7371 Y52.8100 
G01 X-3.5941 Y52.7816 
G01 X-3.4595 Y52.7258 
G01 X-3.3383 Y52.6448 
G01 X-3.2352 Y52.5417 
G01 X-1.1793 Y50.4858 
G01 X-1.0762 Y50.3827 
G01 X-0.9952 Y50.2615 
G01 X-0.9394 Y50.1269 
G01 X-0.9110 Y49.9839 
G01 X-0.9110 Y5.8961 
G01 X-0.9394 Y5.7531 
G01 X-0.9952 Y5.6185 
G01 X-1.0762 Y5.4973 
G01 X-1.1793 Y5.3942 
G01 X-3.2352 Y3.3383 
G01 X-3.3383 Y3.2352 
G01 X-3.4595 Y3.1542 
G01 X-3.5941 Y3.0984 
G01 X-3.7371 Y3.0700 
G01 X-15.3129 Y3.0700 
G01 X-15.4558 Y3.0984 
G01 X-15.5905 Y3.1542 
G01 X-15.7117 Y3.2352 
G01 X-15.8148 Y3.3383 
G01 X-16.3467 Y3.8702 
G01 X-16.4498 Y3.9733 
G01 X-16.9817 Y4.5052 
G01 X-17.0848 Y4.6083 
G01 X-18.2517 Y5.7752 
G01 X-20.6265 Y8.1500 
G01 X-34.3629 Y8.1500 
G01 X-34.5059 Y8.1784 
G01 X-34.6405 Y8.2342 
G01 X-34.7617 Y8.3152 
G01 X-34.8648 Y8.4183 
G01 X-34.9458 Y8.5395 
G01 X-35.0016 Y8.6741 
G01 X-35.0300 Y8.8171 
G01 X-35.0300 Y33.9835 
G01 X-39.6765 Y38.6300 
G01 X-44.8957 Y38.6300 
G01 X-44.9912 Y38.6110 
G01 X-46.4488 Y38.6110 
G01 X-46.5443 Y38.6300 
G01 X-55.5735 Y38.6300 
G01 X-61.4900 Y32.7135 
G01 X-61.4900 Y30.0770 
G01 X-61.3826 Y30.0770 
G01 X-61.2151 Y30.0437 
G01 X-61.0573 Y29.9783 
G01 X-60.9153 Y29.8834 
G01 X-60.7946 Y29.7627 
G01 X-60.6997 Y29.6207 
G01 X-60.6343 Y29.4629 
G01 X-60.6010 Y29.2954 
G01 X-60.6010 Y29.1246 
G01 X-60.6343 Y28.9571 
G01 X-60.6997 Y28.7993 
G01 X-60.7946 Y28.6573 
G01 X-60.9153 Y28.5366 
G01 X-61.0573 Y28.4417 
G01 X-61.2151 Y28.3763 
G01 X-61.3826 Y28.3430 
G01 X-63.0774 Y28.3430 
G01 X-63.2449 Y28.3763 
G01 X-63.4027 Y28.4417 
G01 X-63.5447 Y28.5366 
G01 X-63.6654 Y28.6573 
G01 X-63.7603 Y28.7993 
G01 X-63.8257 Y28.9571 
G01 X-63.8590 Y29.1246 
G01 X-63.8590 Y29.2954 
G01 X-63.8257 Y29.4629 
G01 X-63.7603 Y29.6207 
G01 X-63.6654 Y29.7627 
G01 X-63.5447 Y29.8834 
G01 X-63.4027 Y29.9783 
G01 X-63.2449 Y30.0437 
G01 X-63.0774 Y30.0770 
G01 X-62.9700 Y30.0770 
G01 X-62.9700 Y33.0929 
G01 X-62.9416 Y33.2358 
G01 X-62.8858 Y33.3705 
G01 X-62.8048 Y33.4917 
G01 X-56.4548 Y39.8417 
G01 X-56.3517 Y39.9448 
G01 X-56.2305 Y40.0258 
G01 X-56.0959 Y40.0816 
G01 X-55.9529 Y40.1100 
G01 X-52.3765 Y40.1100 
G01 X-51.5400 Y40.9465 
G01 X-51.5400 Y48.3149 
G01 X-51.5683 Y48.3573 
G01 X-51.6337 Y48.5151 
G01 X-51.6670 Y48.6826 
G01 X-51.6670 Y50.3774 
G01 X-51.6337 Y50.5449 
G01 X-51.5683 Y50.7027 
G01 X-51.4734 Y50.8447 
G01 X-51.3527 Y50.9654 
G01 X-51.2107 Y51.0603 
G01 X-51.0529 Y51.1257 
G01 X-50.8854 Y51.1590 
G01 X-50.7146 Y51.1590 
G01 X-50.5471 Y51.1257 
G01 X-50.3893 Y51.0603 
G01 X-50.2473 Y50.9654 
G01 X-50.1266 Y50.8447 
G01 X-50.0317 Y50.7027 
G01 X-49.9663 Y50.5449 
G01 X-49.9330 Y50.3774 
G01 X-49.9330 Y48.6826 
G01 X-49.9663 Y48.5151 
G01 X-50.0317 Y48.3573 
G01 X-50.0600 Y48.3149 
G01 X-50.0600 Y40.9465 
G01 X-49.2235 Y40.1100 
G01 X-46.5443 Y40.1100 
G01 X-46.4488 Y40.1290 
G01 X-44.9912 Y40.1290 
G01 X-44.8957 Y40.1100 
G01 X-39.2971 Y40.1100 
G01 X-39.1541 Y40.0816 
G01 X-39.0195 Y40.0258 
G01 X-38.8983 Y39.9448 
G01 X-38.7952 Y39.8417 
G01 X-33.9835 Y35.0300 
G01 X-31.3043 Y35.0300 
G01 X-31.2088 Y35.0490 
G01 X-29.7512 Y35.0490 
G01 X-29.6046 Y35.0198 
G01 X-29.4665 Y34.9626 
G01 X-29.3422 Y34.8796 
G01 X-29.2364 Y34.7738 
G01 X-29.1534 Y34.6495 
G01 X-29.0962 Y34.5114 
G01 X-29.0670 Y34.3648 
G01 X-29.0670 Y34.2152 
G01 X-29.0962 Y34.0686 
G01 X-29.1534 Y33.9305 
G01 X-29.2364 Y33.8062 
G01 X-29.3422 Y33.7004 
G01 X-29.4665 Y33.6174 
G01 X-29.6046 Y33.5602 
G01 X-29.7512 Y33.5310 
G01 X-29.8560 Y33.5310 
G01 X-29.9581 Y33.4628 
G01 X-30.0927 Y33.4070 
G01 X-30.2357 Y33.3786 
G01 X-30.3815 Y33.3786 
G01 X-30.5245 Y33.4070 
G01 X-30.6591 Y33.4628 
G01 X-30.7612 Y33.5310 
G01 X-31.2088 Y33.5310 
G01 X-31.3043 Y33.5500 
G01 X-32.7135 Y33.5500 
G01 X-33.5500 Y32.7135 
G01 X-33.5500 Y13.0065 
G01 X-32.4452 Y11.9017 
G01 X-31.4435 Y10.9000 
G01 X-16.8165 Y10.9000 
G01 X-15.9800 Y11.7365 
G01 X-15.9800 Y14.0249 
G01 X-16.0083 Y14.0673 
G01 X-16.0737 Y14.2251 
G01 X-16.1070 Y14.3926 
G01 X-16.1070 Y16.0874 
G01 X-16.0737 Y16.2549 
G01 X-16.0083 Y16.4127 
G01 X-15.9134 Y16.5547 
G01 X-15.7927 Y16.6754 
G01 X-15.6507 Y16.7703 
G01 X-15.4929 Y16.8357 
G01 X-15.3254 Y16.8690 
G01 X-15.1546 Y16.8690 
G01 X-14.9871 Y16.8357 
G01 X-14.8293 Y16.7703 
G01 X-14.6873 Y16.6754 
G01 X-14.5666 Y16.5547 
G01 X-14.4717 Y16.4127 
G01 X-14.4063 Y16.2549 
G01 X-14.3730 Y16.0874 
G01 X-14.3730 Y14.3926 
G01 X-14.4063 Y14.2251 
G01 X-14.4717 Y14.0673 
G01 X-14.5000 Y14.0249 
G01 X-14.5000 Y5.0071 
G01 X-14.5284 Y4.8641 
G01 X-14.5842 Y4.7295 
G01 X-14.6652 Y4.6083 
G01 X-14.7235 Y4.5500 
G01 X-4.1165 Y4.5500 
G01 X-2.3910 Y6.2755 
G01 X-2.3910 Y49.6045 
G01 X-4.1165 Y51.3300 
G00 Z2.5400 
G00 X-11.0076 Y26.1983 
G01 Z-0.1778 F50.00 
G01 X-11.1107 Y26.0952 F75.00 
G01 X-11.2319 Y26.0142 
G01 X-11.3665 Y25.9584 
G01 X-11.5095 Y25.9300 
G01 X-29.6557 Y25.9300 
G01 X-29.7512 Y25.9110 
G01 X-31.2088 Y25.9110 
G01 X-31.3554 Y25.9402 
G01 X-31.4935 Y25.9974 
G01 X-31.6178 Y26.0804 
G01 X-31.7236 Y26.1862 
G01 X-31.8066 Y26.3105 
G01 X-31.8638 Y26.4486 
G01 X-31.8930 Y26.5952 
G01 X-31.8930 Y26.7448 
G01 X-31.8638 Y26.8914 
G01 X-31.8066 Y27.0295 
G01 X-31.7236 Y27.1538 
G01 X-31.6178 Y27.2596 
G01 X-31.4935 Y27.3426 
G01 X-31.3554 Y27.3998 
G01 X-31.2088 Y27.4290 
G01 X-29.7512 Y27.4290 
G01 X-29.6557 Y27.4100 
G01 X-11.8889 Y27.4100 
G01 X-9.6300 Y29.6689 
G01 X-9.6300 Y33.9835 
G01 X-14.4417 Y38.7952 
G01 X-14.5448 Y38.8983 
G01 X-14.6258 Y39.0195 
G01 X-14.6816 Y39.1541 
G01 X-14.7100 Y39.2971 
G01 X-14.7100 Y49.0439 
G01 X-14.8370 Y49.1709 
G01 X-14.8370 Y49.8891 
G01 X-14.3291 Y50.3970 
G01 X-13.6109 Y50.3970 
G01 X-13.1030 Y49.8891 
G01 X-13.1030 Y49.1709 
G01 X-13.2300 Y49.0439 
G01 X-13.2300 Y39.6765 
G01 X-8.4183 Y34.8648 
G01 X-8.3152 Y34.7617 
G01 X-8.2342 Y34.6405 
G01 X-8.1784 Y34.5059 
G01 X-8.1500 Y34.3629 
G01 X-8.1500 Y29.2895 
G01 X-8.1784 Y29.1465 
G01 X-8.2342 Y29.0119 
G01 X-8.3152 Y28.8907 
G01 X-8.4183 Y28.7876 
G01 X-11.0076 Y26.1983 
G00 Z2.5400 
G00 X-55.4770 Y32.9346 
G01 Z-0.1778 F50.00 
G01 X-55.4770 Y34.3754 F75.00 
G01 X-55.4437 Y34.5429 
G01 X-55.3783 Y34.7007 
G01 X-55.2834 Y34.8427 
G01 X-55.1627 Y34.9634 
G01 X-55.0207 Y35.0583 
G01 X-54.8629 Y35.1237 
G01 X-54.6954 Y35.1570 
G01 X-46.5568 Y35.1570 
G01 X-46.4613 Y35.1760 
G01 X-44.9787 Y35.1760 
G01 X-44.8076 Y35.1420 
G01 X-44.6463 Y35.0752 
G01 X-44.5012 Y34.9782 
G01 X-44.3778 Y34.8548 
G01 X-44.2808 Y34.7097 
G01 X-44.2140 Y34.5484 
G01 X-44.1800 Y34.3773 
G01 X-44.1800 Y34.2027 
G01 X-44.2140 Y34.0316 
G01 X-44.2808 Y33.8703 
G01 X-44.3778 Y33.7252 
G01 X-44.5012 Y33.6018 
G01 X-44.6463 Y33.5048 
G01 X-44.8076 Y33.4380 
G01 X-44.9787 Y33.4040 
G01 X-46.4613 Y33.4040 
G01 X-46.5568 Y33.4230 
G01 X-49.1709 Y33.4230 
G01 X-49.9330 Y32.6609 
G01 X-49.9330 Y31.6646 
G01 X-49.9663 Y31.4971 
G01 X-50.0317 Y31.3393 
G01 X-50.1266 Y31.1973 
G01 X-50.2473 Y31.0766 
G01 X-50.3893 Y30.9817 
G01 X-50.5471 Y30.9163 
G01 X-50.7146 Y30.8830 
G01 X-54.6954 Y30.8830 
G01 X-54.8629 Y30.9163 
G01 X-55.0207 Y30.9817 
G01 X-55.1627 Y31.0766 
G01 X-55.2834 Y31.1973 
G01 X-55.3783 Y31.3393 
G01 X-55.4437 Y31.4971 
G01 X-55.4770 Y31.6646 
G01 X-55.4770 Y32.9346 
G00 Z2.5400 
G00 X-9.8840 Y49.1183 
G01 Z-0.1778 F50.00 
G01 X-9.8840 Y49.9417 F75.00 
G01 X-9.3017 Y50.5240 
G01 X-8.4783 Y50.5240 
G01 X-7.8960 Y49.9417 
G01 X-7.8960 Y49.1183 
G01 X-8.0230 Y48.9913 
G01 X-8.0230 Y48.6191 
G01 X-5.9909 Y46.5870 
G01 X-3.7246 Y46.5870 
G01 X-3.5571 Y46.5537 
G01 X-3.3993 Y46.4883 
G01 X-3.2573 Y46.3934 
G01 X-3.1366 Y46.2727 
G01 X-3.0417 Y46.1307 
G01 X-2.9763 Y45.9729 
G01 X-2.9430 Y45.8054 
G01 X-2.9430 Y41.8246 
G01 X-2.9763 Y41.6571 
G01 X-3.0417 Y41.4993 
G01 X-3.1366 Y41.3573 
G01 X-3.2573 Y41.2366 
G01 X-3.3993 Y41.1417 
G01 X-3.5571 Y41.0763 
G01 X-3.7246 Y41.0430 
G01 X-6.4354 Y41.0430 
G01 X-6.6029 Y41.0763 
G01 X-6.7607 Y41.1417 
G01 X-6.9027 Y41.2366 
G01 X-7.0234 Y41.3573 
G01 X-7.1183 Y41.4993 
G01 X-7.1837 Y41.6571 
G01 X-7.2170 Y41.8246 
G01 X-7.2170 Y45.3609 
G01 X-9.5634 Y47.7073 
G01 X-9.6583 Y47.8493 
G01 X-9.7237 Y48.0071 
G01 X-9.7570 Y48.1746 
G01 X-9.7570 Y48.9913 
G01 X-9.8840 Y49.1183 
G00 Z2.5400 
G00 X-12.4240 Y51.6583 
G01 Z-0.1778 F50.00 
G01 X-12.4240 Y52.4817 F75.00 
G01 X-11.8417 Y53.0640 
G01 X-11.0183 Y53.0640 
G01 X-10.4360 Y52.4817 
G01 X-10.4360 Y51.6583 
G01 X-11.0183 Y51.0760 
G01 X-11.8417 Y51.0760 
G01 X-12.4240 Y51.6583 
G00 Z2.5400 
G00 X-14.9640 Y51.6583 
G01 Z-0.1778 F50.00 
G01 X-14.9640 Y52.4817 F75.00 
G01 X-14.3817 Y53.0640 
G01 X-13.5583 Y53.0640 
G01 X-12.9760 Y52.4817 
G01 X-12.9760 Y51.6583 
G01 X-13.5583 Y51.0760 
G01 X-14.3817 Y51.0760 
G01 X-14.9640 Y51.6583 
G00 Z2.5400 
G00 X-17.5040 Y49.1183 
G01 Z-0.1778 F50.00 
G01 X-17.5040 Y49.9417 F75.00 
G01 X-16.9217 Y50.5240 
G01 X-16.0983 Y50.5240 
G01 X-15.5160 Y49.9417 
G01 X-15.5160 Y49.1183 
G01 X-15.6430 Y48.9913 
G01 X-15.6430 Y33.8870 
G01 X-12.6146 Y33.8870 
G01 X-12.4471 Y33.8537 
G01 X-12.2893 Y33.7883 
G01 X-12.1473 Y33.6934 
G01 X-12.0266 Y33.5727 
G01 X-11.9317 Y33.4307 
G01 X-11.8663 Y33.2729 
G01 X-11.8330 Y33.1054 
G01 X-11.8330 Y30.3946 
G01 X-11.8663 Y30.2271 
G01 X-11.9317 Y30.0693 
G01 X-12.0266 Y29.9273 
G01 X-12.1473 Y29.8066 
G01 X-12.2893 Y29.7117 
G01 X-12.4471 Y29.6463 
G01 X-12.6146 Y29.6130 
G01 X-19.1354 Y29.6130 
G01 X-19.3029 Y29.6463 
G01 X-19.4607 Y29.7117 
G01 X-19.6027 Y29.8066 
G01 X-19.7234 Y29.9273 
G01 X-19.8183 Y30.0693 
G01 X-19.8837 Y30.2271 
G01 X-19.9170 Y30.3946 
G01 X-19.9170 Y30.5654 
G01 X-19.8837 Y30.7329 
G01 X-19.8183 Y30.8907 
G01 X-19.7234 Y31.0327 
G01 X-19.6411 Y31.1150 
G01 X-19.7234 Y31.1973 
G01 X-19.8183 Y31.3393 
G01 X-19.8837 Y31.4971 
G01 X-19.9170 Y31.6646 
G01 X-19.9170 Y33.1054 
G01 X-19.8837 Y33.2729 
G01 X-19.8183 Y33.4307 
G01 X-19.7234 Y33.5727 
G01 X-19.6027 Y33.6934 
G01 X-19.4607 Y33.7883 
G01 X-19.3029 Y33.8537 
G01 X-19.1354 Y33.8870 
G01 X-17.3770 Y33.8870 
G01 X-17.3770 Y48.9913 
G01 X-17.5040 Y49.1183 
G00 Z2.5400 
G00 X-16.9217 Y53.0640 
G01 Z-0.1778 F50.00 
G01 X-16.0983 Y53.0640 F75.00 
G01 X-15.5160 Y52.4817 
G01 X-15.5160 Y51.6583 
G01 X-16.0983 Y51.0760 
G01 X-16.9217 Y51.0760 
G01 X-17.0487 Y51.2030 
G01 X-18.6909 Y51.2030 
G01 X-28.6573 Y41.2366 
G01 X-28.7993 Y41.1417 
G01 X-28.9571 Y41.0763 
G01 X-29.1246 Y41.0430 
G01 X-29.6432 Y41.0430 
G01 X-29.7387 Y41.0240 
G01 X-31.2213 Y41.0240 
G01 X-31.3924 Y41.0580 
G01 X-31.5537 Y41.1248 
G01 X-31.6988 Y41.2218 
G01 X-31.8222 Y41.3452 
G01 X-31.9192 Y41.4903 
G01 X-31.9860 Y41.6516 
G01 X-32.0200 Y41.8227 
G01 X-32.0200 Y41.9973 
G01 X-31.9860 Y42.1684 
G01 X-31.9192 Y42.3297 
G01 X-31.8222 Y42.4748 
G01 X-31.6988 Y42.5982 
G01 X-31.5537 Y42.6952 
G01 X-31.3924 Y42.7619 
G01 X-31.2213 Y42.7960 
G01 X-29.7387 Y42.7960 
G01 X-29.6432 Y42.7770 
G01 X-29.5691 Y42.7770 
G01 X-19.6027 Y52.7434 
G01 X-19.4607 Y52.8383 
G01 X-19.3029 Y52.9037 
G01 X-19.1354 Y52.9370 
G01 X-17.0487 Y52.9370 
G01 X-16.9217 Y53.0640 
G00 Z2.5400 
G00 X-42.7960 Y30.3927 
G01 Z-0.1778 F50.00 
G01 X-42.7960 Y30.5673 F75.00 
G01 X-42.7619 Y30.7384 
G01 X-42.6952 Y30.8997 
G01 X-42.5982 Y31.0448 
G01 X-42.4748 Y31.1682 
G01 X-42.3297 Y31.2652 
G01 X-42.1684 Y31.3320 
G01 X-41.9973 Y31.3660 
G01 X-41.8227 Y31.3660 
G01 X-41.6516 Y31.3320 
G01 X-41.4903 Y31.2652 
G01 X-41.3452 Y31.1682 
G01 X-41.2218 Y31.0448 
G01 X-41.1248 Y30.8997 
G01 X-41.0580 Y30.7384 
G01 X-41.0240 Y30.5673 
G01 X-41.0240 Y30.3927 
G01 X-41.0580 Y30.2216 
G01 X-41.1248 Y30.0603 
G01 X-41.2218 Y29.9152 
G01 X-41.3452 Y29.7918 
G01 X-41.4903 Y29.6948 
G01 X-41.6516 Y29.6280 
G01 X-41.8227 Y29.5940 
G01 X-41.9973 Y29.5940 
G01 X-42.1684 Y29.6280 
G01 X-42.3297 Y29.6948 
G01 X-42.4748 Y29.7918 
G01 X-42.5982 Y29.9152 
G01 X-42.6952 Y30.0603 
G01 X-42.7619 Y30.2216 
G01 X-42.7960 Y30.3927 
G00 Z2.5400 
G00 X-42.7960 Y32.9327 
G01 Z-0.1778 F50.00 
G01 X-42.7960 Y33.1073 F75.00 
G01 X-42.7619 Y33.2784 
G01 X-42.6952 Y33.4397 
G01 X-42.5982 Y33.5848 
G01 X-42.4748 Y33.7082 
G01 X-42.3297 Y33.8052 
G01 X-42.1684 Y33.8719 
G01 X-41.9973 Y33.9060 
G01 X-41.8227 Y33.9060 
G01 X-41.6516 Y33.8719 
G01 X-41.4903 Y33.8052 
G01 X-41.3452 Y33.7082 
G01 X-41.2218 Y33.5848 
G01 X-41.1248 Y33.4397 
G01 X-41.0580 Y33.2784 
G01 X-41.0240 Y33.1073 
G01 X-41.0240 Y32.9327 
G01 X-41.0580 Y32.7616 
G01 X-41.1248 Y32.6003 
G01 X-41.2218 Y32.4552 
G01 X-41.3452 Y32.3318 
G01 X-41.4903 Y32.2348 
G01 X-41.6516 Y32.1680 
G01 X-41.8227 Y32.1340 
G01 X-41.9973 Y32.1340 
G01 X-42.1684 Y32.1680 
G01 X-42.3297 Y32.2348 
G01 X-42.4748 Y32.3318 
G01 X-42.5982 Y32.4552 
G01 X-42.6952 Y32.6003 
G01 X-42.7619 Y32.7616 
G01 X-42.7960 Y32.9327 
G00 Z2.5400 
G00 X-37.7160 Y13.2287 
G01 Z-0.1778 F50.00 
G01 X-37.7160 Y14.7113 F75.00 
G01 X-37.6820 Y14.8824 
G01 X-37.6152 Y15.0437 
G01 X-37.5182 Y15.1888 
G01 X-37.3948 Y15.3122 
G01 X-37.2497 Y15.4092 
G01 X-37.0884 Y15.4760 
G01 X-36.9173 Y15.5100 
G01 X-36.7427 Y15.5100 
G01 X-36.5716 Y15.4760 
G01 X-36.4103 Y15.4092 
G01 X-36.2652 Y15.3122 
G01 X-36.1418 Y15.1888 
G01 X-36.0448 Y15.0437 
G01 X-35.9780 Y14.8824 
G01 X-35.9440 Y14.7113 
G01 X-35.9440 Y13.2287 
G01 X-35.9780 Y13.0576 
G01 X-36.0448 Y12.8963 
G01 X-36.1418 Y12.7512 
G01 X-36.2652 Y12.6278 
G01 X-36.4103 Y12.5308 
G01 X-36.5716 Y12.4640 
G01 X-36.7427 Y12.4300 
G01 X-36.9173 Y12.4300 
G01 X-37.0884 Y12.4640 
G01 X-37.2497 Y12.5308 
G01 X-37.3948 Y12.6278 
G01 X-37.5182 Y12.7512 
G01 X-37.6152 Y12.8963 
G01 X-37.6820 Y13.0576 
G01 X-37.7160 Y13.2287 
G00 Z2.5400 
G00 X-40.2560 Y13.2287 
G01 Z-0.1778 F50.00 
G01 X-40.2560 Y14.7113 F75.00 
G01 X-40.2219 Y14.8824 
G01 X-40.1552 Y15.0437 
G01 X-40.0582 Y15.1888 
G01 X-39.9348 Y15.3122 
G01 X-39.7897 Y15.4092 
G01 X-39.6284 Y15.4760 
G01 X-39.4573 Y15.5100 
G01 X-39.2827 Y15.5100 
G01 X-39.1116 Y15.4760 
G01 X-38.9503 Y15.4092 
G01 X-38.8052 Y15.3122 
G01 X-38.6818 Y15.1888 
G01 X-38.5848 Y15.0437 
G01 X-38.5180 Y14.8824 
G01 X-38.4840 Y14.7113 
G01 X-38.4840 Y13.2287 
G01 X-38.5180 Y13.0576 
G01 X-38.5848 Y12.8963 
G01 X-38.6818 Y12.7512 
G01 X-38.8052 Y12.6278 
G01 X-38.9503 Y12.5308 
G01 X-39.1116 Y12.4640 
G01 X-39.2827 Y12.4300 
G01 X-39.4573 Y12.4300 
G01 X-39.6284 Y12.4640 
G01 X-39.7897 Y12.5308 
G01 X-39.9348 Y12.6278 
G01 X-40.0582 Y12.7512 
G01 X-40.1552 Y12.8963 
G01 X-40.2219 Y13.0576 
G01 X-40.2560 Y13.2287 
G00 Z2.5400 
G00 X-42.7960 Y13.2287 
G01 Z-0.1778 F50.00 
G01 X-42.7960 Y14.7113 F75.00 
G01 X-42.7619 Y14.8824 
G01 X-42.6952 Y15.0437 
G01 X-42.5982 Y15.1888 
G01 X-42.4748 Y15.3122 
G01 X-42.3297 Y15.4092 
G01 X-42.1684 Y15.4760 
G01 X-41.9973 Y15.5100 
G01 X-41.8227 Y15.5100 
G01 X-41.6516 Y15.4760 
G01 X-41.4903 Y15.4092 
G01 X-41.3452 Y15.3122 
G01 X-41.2218 Y15.1888 
G01 X-41.1248 Y15.0437 
G01 X-41.0580 Y14.8824 
G01 X-41.0240 Y14.7113 
G01 X-41.0240 Y13.2287 
G01 X-41.0580 Y13.0576 
G01 X-41.1248 Y12.8963 
G01 X-41.2218 Y12.7512 
G01 X-41.3452 Y12.6278 
G01 X-41.4903 Y12.5308 
G01 X-41.6516 Y12.4640 
G01 X-41.8227 Y12.4300 
G01 X-41.9973 Y12.4300 
G01 X-42.1684 Y12.4640 
G01 X-42.3297 Y12.5308 
G01 X-42.4748 Y12.6278 
G01 X-42.5982 Y12.7512 
G01 X-42.6952 Y12.8963 
G01 X-42.7619 Y13.0576 
G01 X-42.7960 Y13.2287 
G00 Z2.5400 
G00 X-44.9787 Y13.0840 
G01 Z-0.1778 F50.00 
G01 X-46.4613 Y13.0840 F75.00 
G01 X-46.6324 Y13.1180 
G01 X-46.7937 Y13.1848 
G01 X-46.9388 Y13.2818 
G01 X-47.0622 Y13.4052 
G01 X-47.1592 Y13.5503 
G01 X-47.2260 Y13.7116 
G01 X-47.2600 Y13.8827 
G01 X-47.2600 Y14.0573 
G01 X-47.2260 Y14.2284 
G01 X-47.1592 Y14.3897 
G01 X-47.0622 Y14.5348 
G01 X-46.9388 Y14.6582 
G01 X-46.7937 Y14.7552 
G01 X-46.6324 Y14.8220 
G01 X-46.4613 Y14.8560 
G01 X-44.9787 Y14.8560 
G01 X-44.8076 Y14.8220 
G01 X-44.6463 Y14.7552 
G01 X-44.5012 Y14.6582 
G01 X-44.3778 Y14.5348 
G01 X-44.2808 Y14.3897 
G01 X-44.2140 Y14.2284 
G01 X-44.1800 Y14.0573 
G01 X-44.1800 Y13.8827 
G01 X-44.2140 Y13.7116 
G01 X-44.2808 Y13.5503 
G01 X-44.3778 Y13.4052 
G01 X-44.5012 Y13.2818 
G01 X-44.6463 Y13.1848 
G01 X-44.8076 Y13.1180 
G01 X-44.9787 Y13.0840 
G00 Z2.5400 
G00 X-44.9787 Y15.6240 
G01 Z-0.1778 F50.00 
G01 X-46.4613 Y15.6240 F75.00 
G01 X-46.6324 Y15.6580 
G01 X-46.7937 Y15.7248 
G01 X-46.9388 Y15.8218 
G01 X-47.0622 Y15.9452 
G01 X-47.1592 Y16.0903 
G01 X-47.2260 Y16.2516 
G01 X-47.2600 Y16.4227 
G01 X-47.2600 Y16.5973 
G01 X-47.2260 Y16.7684 
G01 X-47.1592 Y16.9297 
G01 X-47.0622 Y17.0748 
G01 X-46.9388 Y17.1982 
G01 X-46.7937 Y17.2952 
G01 X-46.6324 Y17.3620 
G01 X-46.4613 Y17.3960 
G01 X-44.9787 Y17.3960 
G01 X-44.8076 Y17.3620 
G01 X-44.6463 Y17.2952 
G01 X-44.5012 Y17.1982 
G01 X-44.3778 Y17.0748 
G01 X-44.2808 Y16.9297 
G01 X-44.2140 Y16.7684 
G01 X-44.1800 Y16.5973 
G01 X-44.1800 Y16.4227 
G01 X-44.2140 Y16.2516 
G01 X-44.2808 Y16.0903 
G01 X-44.3778 Y15.9452 
G01 X-44.5012 Y15.8218 
G01 X-44.6463 Y15.7248 
G01 X-44.8076 Y15.6580 
G01 X-44.9787 Y15.6240 
G00 Z2.5400 
G00 X-44.9787 Y18.1640 
G01 Z-0.1778 F50.00 
G01 X-46.4613 Y18.1640 F75.00 
G01 X-46.6324 Y18.1980 
G01 X-46.7937 Y18.2648 
G01 X-46.9388 Y18.3618 
G01 X-47.0622 Y18.4852 
G01 X-47.1592 Y18.6303 
G01 X-47.2260 Y18.7916 
G01 X-47.2600 Y18.9627 
G01 X-47.2600 Y19.1373 
G01 X-47.2260 Y19.3084 
G01 X-47.1592 Y19.4697 
G01 X-47.0622 Y19.6148 
G01 X-46.9388 Y19.7382 
G01 X-46.7937 Y19.8352 
G01 X-46.6324 Y19.9019 
G01 X-46.4613 Y19.9360 
G01 X-44.9787 Y19.9360 
G01 X-44.8076 Y19.9019 
G01 X-44.6463 Y19.8352 
G01 X-44.5012 Y19.7382 
G01 X-44.3778 Y19.6148 
G01 X-44.2808 Y19.4697 
G01 X-44.2140 Y19.3084 
G01 X-44.1800 Y19.1373 
G01 X-44.1800 Y18.9627 
G01 X-44.2140 Y18.7916 
G01 X-44.2808 Y18.6303 
G01 X-44.3778 Y18.4852 
G01 X-44.5012 Y18.3618 
G01 X-44.6463 Y18.2648 
G01 X-44.8076 Y18.1980 
G01 X-44.9787 Y18.1640 
G00 Z2.5400 
G00 X-44.9787 Y20.7040 
G01 Z-0.1778 F50.00 
G01 X-46.4613 Y20.7040 F75.00 
G01 X-46.6324 Y20.7380 
G01 X-46.7937 Y20.8048 
G01 X-46.9388 Y20.9018 
G01 X-47.0622 Y21.0252 
G01 X-47.1592 Y21.1703 
G01 X-47.2260 Y21.3316 
G01 X-47.2600 Y21.5027 
G01 X-47.2600 Y21.6773 
G01 X-47.2260 Y21.8484 
G01 X-47.1592 Y22.0097 
G01 X-47.0622 Y22.1548 
G01 X-46.9388 Y22.2782 
G01 X-46.7937 Y22.3752 
G01 X-46.6324 Y22.4420 
G01 X-46.4613 Y22.4760 
G01 X-44.9787 Y22.4760 
G01 X-44.8076 Y22.4420 
G01 X-44.6463 Y22.3752 
G01 X-44.5012 Y22.2782 
G01 X-44.3778 Y22.1548 
G01 X-44.2808 Y22.0097 
G01 X-44.2140 Y21.8484 
G01 X-44.1800 Y21.6773 
G01 X-44.1800 Y21.5027 
G01 X-44.2140 Y21.3316 
G01 X-44.2808 Y21.1703 
G01 X-44.3778 Y21.0252 
G01 X-44.5012 Y20.9018 
G01 X-44.6463 Y20.8048 
G01 X-44.8076 Y20.7380 
G01 X-44.9787 Y20.7040 
G00 Z2.5400 
G00 X-44.9787 Y23.2440 
G01 Z-0.1778 F50.00 
G01 X-46.4613 Y23.2440 F75.00 
G01 X-46.6324 Y23.2780 
G01 X-46.7937 Y23.3448 
G01 X-46.9388 Y23.4418 
G01 X-47.0622 Y23.5652 
G01 X-47.1592 Y23.7103 
G01 X-47.2260 Y23.8716 
G01 X-47.2600 Y24.0427 
G01 X-47.2600 Y24.2173 
G01 X-47.2260 Y24.3884 
G01 X-47.1592 Y24.5497 
G01 X-47.0622 Y24.6948 
G01 X-46.9388 Y24.8182 
G01 X-46.7937 Y24.9152 
G01 X-46.6324 Y24.9820 
G01 X-46.4613 Y25.0160 
G01 X-44.9787 Y25.0160 
G01 X-44.8076 Y24.9820 
G01 X-44.6463 Y24.9152 
G01 X-44.5012 Y24.8182 
G01 X-44.3778 Y24.6948 
G01 X-44.2808 Y24.5497 
G01 X-44.2140 Y24.3884 
G01 X-44.1800 Y24.2173 
G01 X-44.1800 Y24.0427 
G01 X-44.2140 Y23.8716 
G01 X-44.2808 Y23.7103 
G01 X-44.3778 Y23.5652 
G01 X-44.5012 Y23.4418 
G01 X-44.6463 Y23.3448 
G01 X-44.8076 Y23.2780 
G01 X-44.9787 Y23.2440 
G00 Z2.5400 
G00 X-44.9787 Y25.7840 
G01 Z-0.1778 F50.00 
G01 X-46.4613 Y25.7840 F75.00 
G01 X-46.5568 Y25.8030 
G01 X-47.8650 Y25.8030 
G01 X-47.8904 Y25.7776 
G01 X-48.6296 Y25.7776 
G01 X-49.1524 Y26.3004 
G01 X-49.1524 Y27.0396 
G01 X-48.6296 Y27.5624 
G01 X-47.8904 Y27.5624 
G01 X-47.8650 Y27.5370 
G01 X-46.5568 Y27.5370 
G01 X-46.4613 Y27.5560 
G01 X-44.9787 Y27.5560 
G01 X-44.8076 Y27.5220 
G01 X-44.6463 Y27.4552 
G01 X-44.5012 Y27.3582 
G01 X-44.3778 Y27.2348 
G01 X-44.2808 Y27.0897 
G01 X-44.2140 Y26.9284 
G01 X-44.1800 Y26.7573 
G01 X-44.1800 Y26.5827 
G01 X-44.2140 Y26.4116 
G01 X-44.2808 Y26.2503 
G01 X-44.3778 Y26.1052 
G01 X-44.5012 Y25.9818 
G01 X-44.6463 Y25.8848 
G01 X-44.8076 Y25.8180 
G01 X-44.9787 Y25.7840 
G00 Z2.5400 
G00 X-44.9787 Y28.3240 
G01 Z-0.1778 F50.00 
G01 X-46.4613 Y28.3240 F75.00 
G01 X-46.6324 Y28.3580 
G01 X-46.7937 Y28.4248 
G01 X-46.9388 Y28.5218 
G01 X-47.0622 Y28.6452 
G01 X-47.1592 Y28.7903 
G01 X-47.2260 Y28.9516 
G01 X-47.2600 Y29.1227 
G01 X-47.2600 Y29.2973 
G01 X-47.2260 Y29.4684 
G01 X-47.1592 Y29.6297 
G01 X-47.0622 Y29.7748 
G01 X-46.9388 Y29.8982 
G01 X-46.7937 Y29.9952 
G01 X-46.6324 Y30.0620 
G01 X-46.4613 Y30.0960 
G01 X-44.9787 Y30.0960 
G01 X-44.8076 Y30.0620 
G01 X-44.6463 Y29.9952 
G01 X-44.5012 Y29.8982 
G01 X-44.3778 Y29.7748 
G01 X-44.2808 Y29.6297 
G01 X-44.2140 Y29.4684 
G01 X-44.1800 Y29.2973 
G01 X-44.1800 Y29.1227 
G01 X-44.2140 Y28.9516 
G01 X-44.2808 Y28.7903 
G01 X-44.3778 Y28.6452 
G01 X-44.5012 Y28.5218 
G01 X-44.6463 Y28.4248 
G01 X-44.8076 Y28.3580 
G01 X-44.9787 Y28.3240 
G00 Z2.5400 
G00 X-44.9787 Y30.8640 
G01 Z-0.1778 F50.00 
G01 X-46.4613 Y30.8640 F75.00 
G01 X-46.6324 Y30.8980 
G01 X-46.7937 Y30.9648 
G01 X-46.9388 Y31.0618 
G01 X-47.0622 Y31.1852 
G01 X-47.1592 Y31.3303 
G01 X-47.2260 Y31.4916 
G01 X-47.2600 Y31.6627 
G01 X-47.2600 Y31.8373 
G01 X-47.2260 Y32.0084 
G01 X-47.1592 Y32.1697 
G01 X-47.0622 Y32.3148 
G01 X-46.9388 Y32.4382 
G01 X-46.7937 Y32.5352 
G01 X-46.6324 Y32.6020 
G01 X-46.4613 Y32.6360 
G01 X-44.9787 Y32.6360 
G01 X-44.8076 Y32.6020 
G01 X-44.6463 Y32.5352 
G01 X-44.5012 Y32.4382 
G01 X-44.3778 Y32.3148 
G01 X-44.2808 Y32.1697 
G01 X-44.2140 Y32.0084 
G01 X-44.1800 Y31.8373 
G01 X-44.1800 Y31.6627 
G01 X-44.2140 Y31.4916 
G01 X-44.2808 Y31.3303 
G01 X-44.3778 Y31.1852 
G01 X-44.5012 Y31.0618 
G01 X-44.6463 Y30.9648 
G01 X-44.8076 Y30.8980 
G01 X-44.9787 Y30.8640 
G00 Z2.5400 
G00 X-44.9787 Y35.9440 
G01 Z-0.1778 F50.00 
G01 X-46.4613 Y35.9440 F75.00 
G01 X-46.6324 Y35.9780 
G01 X-46.7937 Y36.0448 
G01 X-46.9388 Y36.1418 
G01 X-47.0622 Y36.2652 
G01 X-47.1592 Y36.4103 
G01 X-47.2260 Y36.5716 
G01 X-47.2600 Y36.7427 
G01 X-47.2600 Y36.9173 
G01 X-47.2260 Y37.0884 
G01 X-47.1592 Y37.2497 
G01 X-47.0622 Y37.3948 
G01 X-46.9388 Y37.5182 
G01 X-46.7937 Y37.6152 
G01 X-46.6324 Y37.6820 
G01 X-46.4613 Y37.7160 
G01 X-44.9787 Y37.7160 
G01 X-44.8076 Y37.6820 
G01 X-44.6463 Y37.6152 
G01 X-44.5012 Y37.5182 
G01 X-44.3778 Y37.3948 
G01 X-44.2808 Y37.2497 
G01 X-44.2140 Y37.0884 
G01 X-44.1800 Y36.9173 
G01 X-44.1800 Y36.7427 
G01 X-44.2140 Y36.5716 
G01 X-44.2808 Y36.4103 
G01 X-44.3778 Y36.2652 
G01 X-44.5012 Y36.1418 
G01 X-44.6463 Y36.0448 
G01 X-44.8076 Y35.9780 
G01 X-44.9787 Y35.9440 
G00 Z2.5400 
G00 X-44.9787 Y41.0240 
G01 Z-0.1778 F50.00 
G01 X-46.4613 Y41.0240 F75.00 
G01 X-46.5568 Y41.0430 
G01 X-48.3454 Y41.0430 
G01 X-48.5129 Y41.0763 
G01 X-48.6707 Y41.1417 
G01 X-48.8127 Y41.2366 
G01 X-48.9334 Y41.3573 
G01 X-49.0283 Y41.4993 
G01 X-49.0937 Y41.6571 
G01 X-49.1270 Y41.8246 
G01 X-49.1270 Y48.2764 
G01 X-49.1409 Y48.2972 
G01 X-49.2158 Y48.4781 
G01 X-49.2540 Y48.6701 
G01 X-49.2540 Y50.3899 
G01 X-49.2158 Y50.5819 
G01 X-49.1409 Y50.7628 
G01 X-49.0321 Y50.9256 
G01 X-48.8936 Y51.0641 
G01 X-48.7308 Y51.1729 
G01 X-48.5499 Y51.2478 
G01 X-48.3579 Y51.2860 
G01 X-48.1621 Y51.2860 
G01 X-47.9701 Y51.2478 
G01 X-47.7892 Y51.1729 
G01 X-47.6264 Y51.0641 
G01 X-47.4879 Y50.9256 
G01 X-47.3791 Y50.7628 
G01 X-47.3042 Y50.5819 
G01 X-47.2660 Y50.3899 
G01 X-47.2660 Y48.6701 
G01 X-47.3042 Y48.4781 
G01 X-47.3791 Y48.2972 
G01 X-47.3930 Y48.2764 
G01 X-47.3930 Y44.8091 
G01 X-46.3166 Y43.7327 
G01 X-45.3799 Y42.7960 
G01 X-44.9787 Y42.7960 
G01 X-44.8076 Y42.7619 
G01 X-44.6463 Y42.6952 
G01 X-44.5012 Y42.5982 
G01 X-44.3778 Y42.4748 
G01 X-44.2808 Y42.3297 
G01 X-44.2140 Y42.1684 
G01 X-44.1800 Y41.9973 
G01 X-44.1800 Y41.8227 
G01 X-44.2140 Y41.6516 
G01 X-44.2808 Y41.4903 
G01 X-44.3778 Y41.3452 
G01 X-44.5012 Y41.2218 
G01 X-44.6463 Y41.1248 
G01 X-44.8076 Y41.0580 
G01 X-44.9787 Y41.0240 
G00 Z2.5400 
G00 X-29.7387 Y13.0840 
G01 Z-0.1778 F50.00 
G01 X-31.2213 Y13.0840 F75.00 
G01 X-31.3924 Y13.1180 
G01 X-31.5537 Y13.1848 
G01 X-31.6988 Y13.2818 
G01 X-31.8222 Y13.4052 
G01 X-31.9192 Y13.5503 
G01 X-31.9860 Y13.7116 
G01 X-32.0200 Y13.8827 
G01 X-32.0200 Y14.0573 
G01 X-31.9860 Y14.2284 
G01 X-31.9192 Y14.3897 
G01 X-31.8222 Y14.5348 
G01 X-31.6988 Y14.6582 
G01 X-31.5537 Y14.7552 
G01 X-31.3924 Y14.8220 
G01 X-31.2213 Y14.8560 
G01 X-29.7387 Y14.8560 
G01 X-29.5676 Y14.8220 
G01 X-29.4063 Y14.7552 
G01 X-29.2612 Y14.6582 
G01 X-29.1378 Y14.5348 
G01 X-29.0408 Y14.3897 
G01 X-28.9740 Y14.2284 
G01 X-28.9400 Y14.0573 
G01 X-28.9400 Y13.8827 
G01 X-28.9740 Y13.7116 
G01 X-29.0408 Y13.5503 
G01 X-29.1378 Y13.4052 
G01 X-29.2612 Y13.2818 
G01 X-29.4063 Y13.1848 
G01 X-29.5676 Y13.1180 
G01 X-29.7387 Y13.0840 
G00 Z2.5400 
G00 X-29.7387 Y18.1640 
G01 Z-0.1778 F50.00 
G01 X-31.2213 Y18.1640 F75.00 
G01 X-31.3924 Y18.1980 
G01 X-31.5537 Y18.2648 
G01 X-31.6988 Y18.3618 
G01 X-31.8222 Y18.4852 
G01 X-31.9192 Y18.6303 
G01 X-31.9860 Y18.7916 
G01 X-32.0200 Y18.9627 
G01 X-32.0200 Y19.1373 
G01 X-31.9860 Y19.3084 
G01 X-31.9192 Y19.4697 
G01 X-31.8222 Y19.6148 
G01 X-31.6988 Y19.7382 
G01 X-31.5537 Y19.8352 
G01 X-31.3924 Y19.9019 
G01 X-31.2213 Y19.9360 
G01 X-29.7387 Y19.9360 
G01 X-29.5676 Y19.9019 
G01 X-29.4063 Y19.8352 
G01 X-29.2612 Y19.7382 
G01 X-29.1378 Y19.6148 
G01 X-29.0408 Y19.4697 
G01 X-28.9740 Y19.3084 
G01 X-28.9400 Y19.1373 
G01 X-28.9400 Y18.9627 
G01 X-28.9740 Y18.7916 
G01 X-29.0408 Y18.6303 
G01 X-29.1378 Y18.4852 
G01 X-29.2612 Y18.3618 
G01 X-29.4063 Y18.2648 
G01 X-29.5676 Y18.1980 
G01 X-29.7387 Y18.1640 
G00 Z2.5400 
G00 X-29.7387 Y20.7040 
G01 Z-0.1778 F50.00 
G01 X-31.2213 Y20.7040 F75.00 
G01 X-31.3924 Y20.7380 
G01 X-31.5537 Y20.8048 
G01 X-31.6988 Y20.9018 
G01 X-31.8222 Y21.0252 
G01 X-31.9192 Y21.1703 
G01 X-31.9860 Y21.3316 
G01 X-32.0200 Y21.5027 
G01 X-32.0200 Y21.6773 
G01 X-31.9860 Y21.8484 
G01 X-31.9192 Y22.0097 
G01 X-31.8222 Y22.1548 
G01 X-31.6988 Y22.2782 
G01 X-31.5537 Y22.3752 
G01 X-31.3924 Y22.4420 
G01 X-31.2213 Y22.4760 
G01 X-29.7387 Y22.4760 
G01 X-29.5676 Y22.4420 
G01 X-29.4063 Y22.3752 
G01 X-29.2612 Y22.2782 
G01 X-29.1378 Y22.1548 
G01 X-29.0408 Y22.0097 
G01 X-28.9740 Y21.8484 
G01 X-28.9400 Y21.6773 
G01 X-28.9400 Y21.5027 
G01 X-28.9740 Y21.3316 
G01 X-29.0408 Y21.1703 
G01 X-29.1378 Y21.0252 
G01 X-29.2612 Y20.9018 
G01 X-29.4063 Y20.8048 
G01 X-29.5676 Y20.7380 
G01 X-29.7387 Y20.7040 
G00 Z2.5400 
G00 X-29.7387 Y23.2440 
G01 Z-0.1778 F50.00 
G01 X-31.2213 Y23.2440 F75.00 
G01 X-31.3924 Y23.2780 
G01 X-31.5537 Y23.3448 
G01 X-31.6988 Y23.4418 
G01 X-31.8222 Y23.5652 
G01 X-31.9192 Y23.7103 
G01 X-31.9860 Y23.8716 
G01 X-32.0200 Y24.0427 
G01 X-32.0200 Y24.2173 
G01 X-31.9860 Y24.3884 
G01 X-31.9192 Y24.5497 
G01 X-31.8222 Y24.6948 
G01 X-31.6988 Y24.8182 
G01 X-31.5537 Y24.9152 
G01 X-31.3924 Y24.9820 
G01 X-31.2213 Y25.0160 
G01 X-29.7387 Y25.0160 
G01 X-29.6432 Y24.9970 
G01 X-9.2491 Y24.9970 
G01 X-6.0994 Y28.1467 
G01 X-6.0994 Y35.3533 
G01 X-11.9827 Y41.2366 
G01 X-12.1034 Y41.3573 
G01 X-12.1983 Y41.4993 
G01 X-12.2637 Y41.6571 
G01 X-12.2970 Y41.8246 
G01 X-12.2970 Y48.9913 
G01 X-12.4240 Y49.1183 
G01 X-12.4240 Y49.9417 
G01 X-11.8417 Y50.5240 
G01 X-11.0183 Y50.5240 
G01 X-10.4360 Y49.9417 
G01 X-10.4360 Y49.1183 
G01 X-10.5630 Y48.9913 
G01 X-10.5630 Y42.2691 
G01 X-4.6797 Y36.3858 
G01 X-4.5590 Y36.2651 
G01 X-4.4641 Y36.1231 
G01 X-4.3987 Y35.9653 
G01 X-4.3654 Y35.7978 
G01 X-4.3654 Y27.7022 
G01 X-4.3987 Y27.5347 
G01 X-4.4641 Y27.3769 
G01 X-4.5590 Y27.2349 
G01 X-4.6797 Y27.1142 
G01 X-8.3373 Y23.4566 
G01 X-8.4793 Y23.3617 
G01 X-8.6371 Y23.2963 
G01 X-8.8046 Y23.2630 
G01 X-29.6432 Y23.2630 
G01 X-29.7387 Y23.2440 
G00 Z2.5400 
G00 X-29.7387 Y28.3240 
G01 Z-0.1778 F50.00 
G01 X-31.2213 Y28.3240 F75.00 
G01 X-31.3924 Y28.3580 
G01 X-31.5537 Y28.4248 
G01 X-31.6988 Y28.5218 
G01 X-31.8222 Y28.6452 
G01 X-31.9192 Y28.7903 
G01 X-31.9860 Y28.9516 
G01 X-32.0200 Y29.1227 
G01 X-32.0200 Y29.2973 
G01 X-31.9860 Y29.4684 
G01 X-31.9192 Y29.6297 
G01 X-31.8222 Y29.7748 
G01 X-31.6988 Y29.8982 
G01 X-31.5537 Y29.9952 
G01 X-31.3924 Y30.0620 
G01 X-31.2213 Y30.0960 
G01 X-29.7387 Y30.0960 
G01 X-29.5676 Y30.0620 
G01 X-29.4063 Y29.9952 
G01 X-29.2612 Y29.8982 
G01 X-29.1378 Y29.7748 
G01 X-29.0408 Y29.6297 
G01 X-28.9740 Y29.4684 
G01 X-28.9400 Y29.2973 
G01 X-28.9400 Y29.1227 
G01 X-28.9740 Y28.9516 
G01 X-29.0408 Y28.7903 
G01 X-29.1378 Y28.6452 
G01 X-29.2612 Y28.5218 
G01 X-29.4063 Y28.4248 
G01 X-29.5676 Y28.3580 
G01 X-29.7387 Y28.3240 
G00 Z2.5400 
G00 X-29.7387 Y30.8640 
G01 Z-0.1778 F50.00 
G01 X-31.2213 Y30.8640 F75.00 
G01 X-31.3924 Y30.8980 
G01 X-31.5537 Y30.9648 
G01 X-31.6988 Y31.0618 
G01 X-31.8222 Y31.1852 
G01 X-31.9192 Y31.3303 
G01 X-31.9860 Y31.4916 
G01 X-32.0200 Y31.6627 
G01 X-32.0200 Y31.8373 
G01 X-31.9860 Y32.0084 
G01 X-31.9192 Y32.1697 
G01 X-31.8222 Y32.3148 
G01 X-31.6988 Y32.4382 
G01 X-31.5537 Y32.5352 
G01 X-31.3924 Y32.6020 
G01 X-31.2213 Y32.6360 
G01 X-29.7387 Y32.6360 
G01 X-29.5676 Y32.6020 
G01 X-29.4063 Y32.5352 
G01 X-29.2612 Y32.4382 
G01 X-29.1378 Y32.3148 
G01 X-29.0408 Y32.1697 
G01 X-28.9740 Y32.0084 
G01 X-28.9400 Y31.8373 
G01 X-28.9400 Y31.6627 
G01 X-28.9740 Y31.4916 
G01 X-29.0408 Y31.3303 
G01 X-29.1378 Y31.1852 
G01 X-29.2612 Y31.0618 
G01 X-29.4063 Y30.9648 
G01 X-29.5676 Y30.8980 
G01 X-29.7387 Y30.8640 
G00 Z2.5400 
G00 X-29.7387 Y35.9440 
G01 Z-0.1778 F50.00 
G01 X-31.2213 Y35.9440 F75.00 
G01 X-31.3924 Y35.9780 
G01 X-31.5537 Y36.0448 
G01 X-31.6988 Y36.1418 
G01 X-31.8222 Y36.2652 
G01 X-31.9192 Y36.4103 
G01 X-31.9860 Y36.5716 
G01 X-32.0200 Y36.7427 
G01 X-32.0200 Y36.9173 
G01 X-31.9860 Y37.0884 
G01 X-31.9192 Y37.2497 
G01 X-31.8222 Y37.3948 
G01 X-31.6988 Y37.5182 
G01 X-31.5537 Y37.6152 
G01 X-31.3924 Y37.6820 
G01 X-31.2213 Y37.7160 
G01 X-29.7387 Y37.7160 
G01 X-29.5676 Y37.6820 
G01 X-29.4063 Y37.6152 
G01 X-29.2612 Y37.5182 
G01 X-29.1378 Y37.3948 
G01 X-29.0408 Y37.2497 
G01 X-28.9740 Y37.0884 
G01 X-28.9400 Y36.9173 
G01 X-28.9400 Y36.7427 
G01 X-28.9740 Y36.5716 
G01 X-29.0408 Y36.4103 
G01 X-29.1378 Y36.2652 
G01 X-29.2612 Y36.1418 
G01 X-29.4063 Y36.0448 
G01 X-29.5676 Y35.9780 
G01 X-29.7387 Y35.9440 
G00 Z2.5400 
G00 X-29.7387 Y38.4840 
G01 Z-0.1778 F50.00 
G01 X-31.2213 Y38.4840 F75.00 
G01 X-31.3924 Y38.5180 
G01 X-31.5537 Y38.5848 
G01 X-31.6988 Y38.6818 
G01 X-31.8222 Y38.8052 
G01 X-31.9192 Y38.9503 
G01 X-31.9860 Y39.1116 
G01 X-32.0200 Y39.2827 
G01 X-32.0200 Y39.4573 
G01 X-31.9860 Y39.6284 
G01 X-31.9192 Y39.7897 
G01 X-31.8222 Y39.9348 
G01 X-31.6988 Y40.0582 
G01 X-31.5537 Y40.1552 
G01 X-31.3924 Y40.2219 
G01 X-31.2213 Y40.2560 
G01 X-29.7387 Y40.2560 
G01 X-29.6432 Y40.2370 
G01 X-22.7746 Y40.2370 
G01 X-22.6071 Y40.2037 
G01 X-22.4493 Y40.1383 
G01 X-22.3073 Y40.0434 
G01 X-22.2250 Y39.9611 
G01 X-22.1427 Y40.0434 
G01 X-22.0007 Y40.1383 
G01 X-21.8429 Y40.2037 
G01 X-21.6754 Y40.2370 
G01 X-21.5046 Y40.2370 
G01 X-21.3371 Y40.2037 
G01 X-21.1793 Y40.1383 
G01 X-21.0373 Y40.0434 
G01 X-20.9166 Y39.9227 
G01 X-20.8217 Y39.7807 
G01 X-20.7563 Y39.6229 
G01 X-20.7230 Y39.4554 
G01 X-20.7230 Y39.2846 
G01 X-20.7563 Y39.1171 
G01 X-20.8217 Y38.9593 
G01 X-20.9166 Y38.8173 
G01 X-20.9989 Y38.7350 
G01 X-20.9166 Y38.6527 
G01 X-20.8217 Y38.5107 
G01 X-20.7563 Y38.3529 
G01 X-20.7230 Y38.1854 
G01 X-20.7230 Y36.7446 
G01 X-20.7563 Y36.5771 
G01 X-20.8217 Y36.4193 
G01 X-20.9166 Y36.2773 
G01 X-21.0373 Y36.1566 
G01 X-21.1793 Y36.0617 
G01 X-21.3371 Y35.9963 
G01 X-21.5046 Y35.9630 
G01 X-25.4854 Y35.9630 
G01 X-25.6529 Y35.9963 
G01 X-25.8107 Y36.0617 
G01 X-25.9527 Y36.1566 
G01 X-26.0734 Y36.2773 
G01 X-26.1683 Y36.4193 
G01 X-26.2337 Y36.5771 
G01 X-26.2670 Y36.7446 
G01 X-26.2670 Y38.5030 
G01 X-29.6432 Y38.5030 
G01 X-29.7387 Y38.4840 
G00 Z2.5400 
G00 X-43.5640 Y45.1913 
G01 Z-0.1778 F50.00 
G01 X-43.5640 Y43.7087 F75.00 
G01 X-43.5980 Y43.5376 
G01 X-43.6648 Y43.3763 
G01 X-43.7618 Y43.2312 
G01 X-43.8852 Y43.1078 
G01 X-44.0303 Y43.0108 
G01 X-44.1916 Y42.9440 
G01 X-44.3627 Y42.9100 
G01 X-44.5373 Y42.9100 
G01 X-44.7084 Y42.9440 
G01 X-44.8697 Y43.0108 
G01 X-45.0148 Y43.1078 
G01 X-45.1382 Y43.2312 
G01 X-45.2352 Y43.3763 
G01 X-45.3020 Y43.5376 
G01 X-45.3360 Y43.7087 
G01 X-45.3360 Y45.1913 
G01 X-45.3020 Y45.3624 
G01 X-45.2352 Y45.5237 
G01 X-45.1382 Y45.6688 
G01 X-45.0148 Y45.7922 
G01 X-44.8697 Y45.8892 
G01 X-44.7084 Y45.9560 
G01 X-44.5373 Y45.9900 
G01 X-44.3627 Y45.9900 
G01 X-44.1916 Y45.9560 
G01 X-44.0303 Y45.8892 
G01 X-43.8852 Y45.7922 
G01 X-43.7618 Y45.6688 
G01 X-43.6648 Y45.5237 
G01 X-43.5980 Y45.3624 
G01 X-43.5640 Y45.1913 
G00 Z2.5400 
G00 X-41.0240 Y45.1913 
G01 Z-0.1778 F50.00 
G01 X-41.0240 Y43.7087 F75.00 
G01 X-41.0580 Y43.5376 
G01 X-41.1248 Y43.3763 
G01 X-41.2218 Y43.2312 
G01 X-41.3452 Y43.1078 
G01 X-41.4903 Y43.0108 
G01 X-41.6516 Y42.9440 
G01 X-41.8227 Y42.9100 
G01 X-41.9973 Y42.9100 
G01 X-42.1684 Y42.9440 
G01 X-42.3297 Y43.0108 
G01 X-42.4748 Y43.1078 
G01 X-42.5982 Y43.2312 
G01 X-42.6952 Y43.3763 
G01 X-42.7619 Y43.5376 
G01 X-42.7960 Y43.7087 
G01 X-42.7960 Y45.1913 
G01 X-42.7619 Y45.3624 
G01 X-42.6952 Y45.5237 
G01 X-42.5982 Y45.6688 
G01 X-42.4748 Y45.7922 
G01 X-42.3297 Y45.8892 
G01 X-42.1684 Y45.9560 
G01 X-41.9973 Y45.9900 
G01 X-41.8227 Y45.9900 
G01 X-41.6516 Y45.9560 
G01 X-41.4903 Y45.8892 
G01 X-41.3452 Y45.7922 
G01 X-41.2218 Y45.6688 
G01 X-41.1248 Y45.5237 
G01 X-41.0580 Y45.3624 
G01 X-41.0240 Y45.1913 
G00 Z2.5400 
G00 X-38.4840 Y45.1913 
G01 Z-0.1778 F50.00 
G01 X-38.4840 Y43.7087 F75.00 
G01 X-38.5180 Y43.5376 
G01 X-38.5848 Y43.3763 
G01 X-38.6818 Y43.2312 
G01 X-38.8052 Y43.1078 
G01 X-38.9503 Y43.0108 
G01 X-39.1116 Y42.9440 
G01 X-39.2827 Y42.9100 
G01 X-39.4573 Y42.9100 
G01 X-39.6284 Y42.9440 
G01 X-39.7897 Y43.0108 
G01 X-39.9348 Y43.1078 
G01 X-40.0582 Y43.2312 
G01 X-40.1552 Y43.3763 
G01 X-40.2219 Y43.5376 
G01 X-40.2560 Y43.7087 
G01 X-40.2560 Y45.1913 
G01 X-40.2219 Y45.3624 
G01 X-40.1552 Y45.5237 
G01 X-40.0582 Y45.6688 
G01 X-39.9348 Y45.7922 
G01 X-39.7897 Y45.8892 
G01 X-39.6284 Y45.9560 
G01 X-39.4573 Y45.9900 
G01 X-39.2827 Y45.9900 
G01 X-39.1116 Y45.9560 
G01 X-38.9503 Y45.8892 
G01 X-38.8052 Y45.7922 
G01 X-38.6818 Y45.6688 
G01 X-38.5848 Y45.5237 
G01 X-38.5180 Y45.3624 
G01 X-38.4840 Y45.1913 
G00 Z2.5400 
G00 X-35.9440 Y45.1913 
G01 Z-0.1778 F50.00 
G01 X-35.9440 Y43.7087 F75.00 
G01 X-35.9780 Y43.5376 
G01 X-36.0448 Y43.3763 
G01 X-36.1418 Y43.2312 
G01 X-36.2652 Y43.1078 
G01 X-36.4103 Y43.0108 
G01 X-36.5716 Y42.9440 
G01 X-36.7427 Y42.9100 
G01 X-36.9173 Y42.9100 
G01 X-37.0884 Y42.9440 
G01 X-37.2497 Y43.0108 
G01 X-37.3948 Y43.1078 
G01 X-37.5182 Y43.2312 
G01 X-37.6152 Y43.3763 
G01 X-37.6820 Y43.5376 
G01 X-37.7160 Y43.7087 
G01 X-37.7160 Y45.1913 
G01 X-37.6820 Y45.3624 
G01 X-37.6152 Y45.5237 
G01 X-37.5182 Y45.6688 
G01 X-37.3948 Y45.7922 
G01 X-37.2497 Y45.8892 
G01 X-37.0884 Y45.9560 
G01 X-36.9173 Y45.9900 
G01 X-36.7427 Y45.9900 
G01 X-36.5716 Y45.9560 
G01 X-36.4103 Y45.8892 
G01 X-36.2652 Y45.7922 
G01 X-36.1418 Y45.6688 
G01 X-36.0448 Y45.5237 
G01 X-35.9780 Y45.3624 
G01 X-35.9440 Y45.1913 
G00 Z2.5400 
G00 X-33.4040 Y45.1913 
G01 Z-0.1778 F50.00 
G01 X-33.4040 Y43.7087 F75.00 
G01 X-33.4380 Y43.5376 
G01 X-33.5048 Y43.3763 
G01 X-33.6018 Y43.2312 
G01 X-33.7252 Y43.1078 
G01 X-33.8703 Y43.0108 
G01 X-34.0316 Y42.9440 
G01 X-34.2027 Y42.9100 
G01 X-34.3773 Y42.9100 
G01 X-34.5484 Y42.9440 
G01 X-34.7097 Y43.0108 
G01 X-34.8548 Y43.1078 
G01 X-34.9782 Y43.2312 
G01 X-35.0752 Y43.3763 
G01 X-35.1420 Y43.5376 
G01 X-35.1760 Y43.7087 
G01 X-35.1760 Y45.1913 
G01 X-35.1420 Y45.3624 
G01 X-35.0752 Y45.5237 
G01 X-34.9782 Y45.6688 
G01 X-34.8548 Y45.7922 
G01 X-34.7097 Y45.8892 
G01 X-34.5484 Y45.9560 
G01 X-34.3773 Y45.9900 
G01 X-34.2027 Y45.9900 
G01 X-34.0316 Y45.9560 
G01 X-33.8703 Y45.8892 
G01 X-33.7252 Y45.7922 
G01 X-33.6018 Y45.6688 
G01 X-33.5048 Y45.5237 
G01 X-33.4380 Y45.3624 
G01 X-33.4040 Y45.1913 
G00 Z2.5400 
G00 X-30.8640 Y45.1913 
G01 Z-0.1778 F50.00 
G01 X-30.8640 Y43.7087 F75.00 
G01 X-30.8980 Y43.5376 
G01 X-30.9648 Y43.3763 
G01 X-31.0618 Y43.2312 
G01 X-31.1852 Y43.1078 
G01 X-31.3303 Y43.0108 
G01 X-31.4916 Y42.9440 
G01 X-31.6627 Y42.9100 
G01 X-31.8373 Y42.9100 
G01 X-32.0084 Y42.9440 
G01 X-32.1697 Y43.0108 
G01 X-32.3148 Y43.1078 
G01 X-32.4382 Y43.2312 
G01 X-32.5352 Y43.3763 
G01 X-32.6020 Y43.5376 
G01 X-32.6360 Y43.7087 
G01 X-32.6360 Y45.1913 
G01 X-32.6020 Y45.3624 
G01 X-32.5352 Y45.5237 
G01 X-32.4382 Y45.6688 
G01 X-32.3148 Y45.7922 
G01 X-32.1697 Y45.8892 
G01 X-32.0084 Y45.9560 
G01 X-31.8373 Y45.9900 
G01 X-31.6627 Y45.9900 
G01 X-31.4916 Y45.9560 
G01 X-31.3303 Y45.8892 
G01 X-31.1852 Y45.7922 
G01 X-31.0618 Y45.6688 
G01 X-30.9648 Y45.5237 
G01 X-30.8980 Y45.3624 
G01 X-30.8640 Y45.1913 
G00 Z2.5400 
G00 X-11.7060 Y16.0999 
G01 Z-0.1778 F50.00 
G01 X-11.7060 Y14.3801 F75.00 
G01 X-11.7442 Y14.1881 
G01 X-11.8191 Y14.0072 
G01 X-11.8330 Y13.9864 
G01 X-11.8330 Y13.0591 
G01 X-8.5309 Y9.7570 
G01 X-6.2646 Y9.7570 
G01 X-6.0971 Y9.7237 
G01 X-5.9393 Y9.6583 
G01 X-5.7973 Y9.5634 
G01 X-5.6766 Y9.4427 
G01 X-5.5817 Y9.3007 
G01 X-5.5163 Y9.1429 
G01 X-5.4830 Y8.9754 
G01 X-5.4830 Y7.5346 
G01 X-5.5163 Y7.3671 
G01 X-5.5817 Y7.2093 
G01 X-5.6766 Y7.0673 
G01 X-5.7973 Y6.9466 
G01 X-5.9393 Y6.8517 
G01 X-6.0971 Y6.7863 
G01 X-6.2646 Y6.7530 
G01 X-8.9754 Y6.7530 
G01 X-9.1429 Y6.7863 
G01 X-9.3007 Y6.8517 
G01 X-9.4427 Y6.9466 
G01 X-10.8334 Y8.3373 
G01 X-10.9283 Y8.4793 
G01 X-10.9937 Y8.6371 
G01 X-11.0270 Y8.8046 
G01 X-11.0270 Y8.9754 
G01 X-10.9937 Y9.1429 
G01 X-10.9283 Y9.3007 
G01 X-10.8334 Y9.4427 
G01 X-10.7511 Y9.5250 
G01 X-13.2527 Y12.0266 
G01 X-13.3734 Y12.1473 
G01 X-13.4683 Y12.2893 
G01 X-13.5337 Y12.4471 
G01 X-13.5670 Y12.6146 
G01 X-13.5670 Y13.9864 
G01 X-13.5809 Y14.0072 
G01 X-13.6558 Y14.1881 
G01 X-13.6940 Y14.3801 
G01 X-13.6940 Y16.0999 
G01 X-13.6558 Y16.2919 
G01 X-13.5809 Y16.4728 
G01 X-13.4721 Y16.6356 
G01 X-13.3336 Y16.7741 
G01 X-13.1708 Y16.8829 
G01 X-12.9899 Y16.9578 
G01 X-12.7979 Y16.9960 
G01 X-12.6021 Y16.9960 
G01 X-12.4101 Y16.9578 
G01 X-12.2292 Y16.8829 
G01 X-12.0664 Y16.7741 
G01 X-11.9279 Y16.6356 
G01 X-11.8191 Y16.4728 
G01 X-11.7442 Y16.2919 
G01 X-11.7060 Y16.0999 
G00 Z2.5400 
G00 X-9.1660 Y16.0999 
G01 Z-0.1778 F50.00 
G01 X-9.1660 Y14.3801 F75.00 
G01 X-9.2042 Y14.1881 
G01 X-9.2791 Y14.0072 
G01 X-9.3879 Y13.8444 
G01 X-9.5264 Y13.7059 
G01 X-9.6892 Y13.5971 
G01 X-9.8701 Y13.5222 
G01 X-10.0621 Y13.4840 
G01 X-10.2579 Y13.4840 
G01 X-10.4499 Y13.5222 
G01 X-10.6308 Y13.5971 
G01 X-10.7936 Y13.7059 
G01 X-10.9321 Y13.8444 
G01 X-11.0409 Y14.0072 
G01 X-11.1158 Y14.1881 
G01 X-11.1540 Y14.3801 
G01 X-11.1540 Y16.0999 
G01 X-11.1158 Y16.2919 
G01 X-11.0409 Y16.4728 
G01 X-11.0270 Y16.4936 
G01 X-11.0270 Y18.6909 
G01 X-11.7891 Y19.4530 
G01 X-19.9609 Y19.4530 
G01 X-23.4566 Y15.9573 
G01 X-23.5773 Y15.8366 
G01 X-23.7193 Y15.7417 
G01 X-23.8771 Y15.6763 
G01 X-24.0446 Y15.6430 
G01 X-29.6432 Y15.6430 
G01 X-29.7387 Y15.6240 
G01 X-31.2213 Y15.6240 
G01 X-31.3924 Y15.6580 
G01 X-31.5537 Y15.7248 
G01 X-31.6988 Y15.8218 
G01 X-31.8222 Y15.9452 
G01 X-31.9192 Y16.0903 
G01 X-31.9860 Y16.2516 
G01 X-32.0200 Y16.4227 
G01 X-32.0200 Y16.5973 
G01 X-31.9860 Y16.7684 
G01 X-31.9192 Y16.9297 
G01 X-31.8222 Y17.0748 
G01 X-31.6988 Y17.1982 
G01 X-31.5537 Y17.2952 
G01 X-31.3924 Y17.3620 
G01 X-31.2213 Y17.3960 
G01 X-29.7387 Y17.3960 
G01 X-29.6432 Y17.3770 
G01 X-24.4891 Y17.3770 
G01 X-20.9934 Y20.8727 
G01 X-20.8727 Y20.9934 
G01 X-20.7307 Y21.0883 
G01 X-20.5729 Y21.1537 
G01 X-20.4054 Y21.1870 
G01 X-11.3446 Y21.1870 
G01 X-11.1771 Y21.1537 
G01 X-11.0193 Y21.0883 
G01 X-10.8773 Y20.9934 
G01 X-10.7566 Y20.8727 
G01 X-9.4866 Y19.6027 
G01 X-9.3917 Y19.4607 
G01 X-9.3263 Y19.3029 
G01 X-9.2930 Y19.1354 
G01 X-9.2930 Y16.4936 
G01 X-9.2791 Y16.4728 
G01 X-9.2042 Y16.2919 
G01 X-9.1660 Y16.0999 
G00 Z2.5400 
G00 X-61.3701 Y25.6760 
G01 Z-0.1778 F50.00 
G01 X-63.0899 Y25.6760 F75.00 
G01 X-63.2819 Y25.7142 
G01 X-63.4628 Y25.7891 
G01 X-63.6256 Y25.8979 
G01 X-63.7641 Y26.0364 
G01 X-63.8729 Y26.1992 
G01 X-63.9478 Y26.3801 
G01 X-63.9860 Y26.5721 
G01 X-63.9860 Y26.7679 
G01 X-63.9478 Y26.9599 
G01 X-63.8729 Y27.1408 
G01 X-63.7641 Y27.3036 
G01 X-63.6256 Y27.4421 
G01 X-63.4628 Y27.5509 
G01 X-63.2819 Y27.6258 
G01 X-63.0899 Y27.6640 
G01 X-61.3701 Y27.6640 
G01 X-61.1781 Y27.6258 
G01 X-60.9972 Y27.5509 
G01 X-60.9764 Y27.5370 
G01 X-58.8150 Y27.5370 
G01 X-58.7896 Y27.5624 
G01 X-58.0504 Y27.5624 
G01 X-57.5276 Y27.0396 
G01 X-57.5276 Y26.3004 
G01 X-58.0504 Y25.7776 
G01 X-58.7896 Y25.7776 
G01 X-58.8150 Y25.8030 
G01 X-60.9764 Y25.8030 
G01 X-60.9972 Y25.7891 
G01 X-61.1781 Y25.7142 
G01 X-61.3701 Y25.6760 
G00 Z2.5400 
G00 X-4.1691 Y51.2030 
G01 Z-0.1778 F50.00 
G01 X-8.3513 Y51.2030 F75.00 
G01 X-8.4783 Y51.0760 
G01 X-9.3017 Y51.0760 
G01 X-9.8840 Y51.6583 
G01 X-9.8840 Y52.4817 
G01 X-9.3017 Y53.0640 
G01 X-8.4783 Y53.0640 
G01 X-8.3513 Y52.9370 
G01 X-3.7246 Y52.9370 
G01 X-3.5571 Y52.9037 
G01 X-3.3993 Y52.8383 
G01 X-3.2573 Y52.7434 
G01 X-3.1366 Y52.6227 
G01 X-1.0983 Y50.5844 
G01 X-0.9776 Y50.4637 
G01 X-0.8827 Y50.3217 
G01 X-0.8173 Y50.1639 
G01 X-0.7840 Y49.9964 
G01 X-0.7840 Y5.8836 
G01 X-0.8173 Y5.7161 
G01 X-0.8827 Y5.5583 
G01 X-0.9776 Y5.4163 
G01 X-1.0983 Y5.2956 
G01 X-3.1366 Y3.2573 
G01 X-3.2573 Y3.1366 
G01 X-3.3993 Y3.0417 
G01 X-3.5571 Y2.9763 
G01 X-3.7246 Y2.9430 
G01 X-15.3254 Y2.9430 
G01 X-15.4929 Y2.9763 
G01 X-15.6507 Y3.0417 
G01 X-15.7927 Y3.1366 
G01 X-15.9134 Y3.2573 
G01 X-16.4277 Y3.7716 
G01 X-16.5484 Y3.8923 
G01 X-17.0627 Y4.4066 
G01 X-17.1834 Y4.5273 
G01 X-18.3327 Y5.6766 
G01 X-20.6791 Y8.0230 
G01 X-34.3754 Y8.0230 
G01 X-34.5429 Y8.0563 
G01 X-34.7007 Y8.1217 
G01 X-34.8427 Y8.2166 
G01 X-34.9634 Y8.3373 
G01 X-35.0583 Y8.4793 
G01 X-35.1237 Y8.6371 
G01 X-35.1570 Y8.8046 
G01 X-35.1570 Y33.9309 
G01 X-39.7291 Y38.5030 
G01 X-44.8832 Y38.5030 
G01 X-44.9787 Y38.4840 
G01 X-46.4613 Y38.4840 
G01 X-46.5568 Y38.5030 
G01 X-55.5209 Y38.5030 
G01 X-61.3630 Y32.6609 
G01 X-61.3630 Y30.2026 
G01 X-61.1781 Y30.1658 
G01 X-60.9972 Y30.0909 
G01 X-60.8344 Y29.9821 
G01 X-60.6959 Y29.8436 
G01 X-60.5871 Y29.6808 
G01 X-60.5122 Y29.4999 
G01 X-60.4740 Y29.3079 
G01 X-60.4740 Y29.1121 
G01 X-60.5122 Y28.9201 
G01 X-60.5871 Y28.7392 
G01 X-60.6959 Y28.5764 
G01 X-60.8344 Y28.4379 
G01 X-60.9972 Y28.3291 
G01 X-61.1781 Y28.2542 
G01 X-61.3701 Y28.2160 
G01 X-63.0899 Y28.2160 
G01 X-63.2819 Y28.2542 
G01 X-63.4628 Y28.3291 
G01 X-63.6256 Y28.4379 
G01 X-63.7641 Y28.5764 
G01 X-63.8729 Y28.7392 
G01 X-63.9478 Y28.9201 
G01 X-63.9860 Y29.1121 
G01 X-63.9860 Y29.3079 
G01 X-63.9478 Y29.4999 
G01 X-63.8729 Y29.6808 
G01 X-63.7641 Y29.8436 
G01 X-63.6256 Y29.9821 
G01 X-63.4628 Y30.0909 
G01 X-63.2819 Y30.1658 
G01 X-63.0970 Y30.2026 
G01 X-63.0970 Y33.1054 
G01 X-63.0637 Y33.2729 
G01 X-62.9983 Y33.4307 
G01 X-62.9034 Y33.5727 
G01 X-56.5534 Y39.9227 
G01 X-56.4327 Y40.0434 
G01 X-56.2907 Y40.1383 
G01 X-56.1329 Y40.2037 
G01 X-55.9654 Y40.2370 
G01 X-52.4291 Y40.2370 
G01 X-51.6670 Y40.9991 
G01 X-51.6670 Y48.2764 
G01 X-51.6809 Y48.2972 
G01 X-51.7558 Y48.4781 
G01 X-51.7940 Y48.6701 
G01 X-51.7940 Y50.3899 
G01 X-51.7558 Y50.5819 
G01 X-51.6809 Y50.7628 
G01 X-51.5721 Y50.9256 
G01 X-51.4336 Y51.0641 
G01 X-51.2708 Y51.1729 
G01 X-51.0899 Y51.2478 
G01 X-50.8979 Y51.2860 
G01 X-50.7021 Y51.2860 
G01 X-50.5101 Y51.2478 
G01 X-50.3292 Y51.1729 
G01 X-50.1664 Y51.0641 
G01 X-50.0279 Y50.9256 
G01 X-49.9191 Y50.7628 
G01 X-49.8442 Y50.5819 
G01 X-49.8060 Y50.3899 
G01 X-49.8060 Y48.6701 
G01 X-49.8442 Y48.4781 
G01 X-49.9191 Y48.2972 
G01 X-49.9330 Y48.2764 
G01 X-49.9330 Y40.9991 
G01 X-49.1709 Y40.2370 
G01 X-46.5568 Y40.2370 
G01 X-46.4613 Y40.2560 
G01 X-44.9787 Y40.2560 
G01 X-44.8832 Y40.2370 
G01 X-39.2846 Y40.2370 
G01 X-39.1171 Y40.2037 
G01 X-38.9593 Y40.1383 
G01 X-38.8173 Y40.0434 
G01 X-38.6966 Y39.9227 
G01 X-33.9309 Y35.1570 
G01 X-31.3168 Y35.1570 
G01 X-31.2213 Y35.1760 
G01 X-29.7387 Y35.1760 
G01 X-29.5676 Y35.1420 
G01 X-29.4063 Y35.0752 
G01 X-29.2612 Y34.9782 
G01 X-29.1378 Y34.8548 
G01 X-29.0408 Y34.7097 
G01 X-28.9740 Y34.5484 
G01 X-28.9400 Y34.3773 
G01 X-28.9400 Y34.2027 
G01 X-28.9740 Y34.0316 
G01 X-29.0408 Y33.8703 
G01 X-29.1378 Y33.7252 
G01 X-29.2612 Y33.6018 
G01 X-29.4063 Y33.5048 
G01 X-29.5676 Y33.4380 
G01 X-29.7387 Y33.4040 
G01 X-29.8175 Y33.4040 
G01 X-29.8979 Y33.3503 
G01 X-30.0557 Y33.2849 
G01 X-30.2232 Y33.2516 
G01 X-30.3940 Y33.2516 
G01 X-30.5615 Y33.2849 
G01 X-30.7193 Y33.3503 
G01 X-30.7997 Y33.4040 
G01 X-31.2213 Y33.4040 
G01 X-31.3168 Y33.4230 
G01 X-32.6609 Y33.4230 
G01 X-33.4230 Y32.6609 
G01 X-33.4230 Y13.0591 
G01 X-32.3466 Y11.9827 
G01 X-31.3909 Y11.0270 
G01 X-16.8691 Y11.0270 
G01 X-16.1070 Y11.7891 
G01 X-16.1070 Y13.9864 
G01 X-16.1209 Y14.0072 
G01 X-16.1958 Y14.1881 
G01 X-16.2340 Y14.3801 
G01 X-16.2340 Y16.0999 
G01 X-16.1958 Y16.2919 
G01 X-16.1209 Y16.4728 
G01 X-16.0121 Y16.6356 
G01 X-15.8736 Y16.7741 
G01 X-15.7108 Y16.8829 
G01 X-15.5299 Y16.9578 
G01 X-15.3379 Y16.9960 
G01 X-15.1421 Y16.9960 
G01 X-14.9501 Y16.9578 
G01 X-14.7692 Y16.8829 
G01 X-14.6064 Y16.7741 
G01 X-14.4679 Y16.6356 
G01 X-14.3591 Y16.4728 
G01 X-14.2842 Y16.2919 
G01 X-14.2460 Y16.0999 
G01 X-14.2460 Y14.3801 
G01 X-14.2842 Y14.1881 
G01 X-14.3591 Y14.0072 
G01 X-14.3730 Y13.9864 
G01 X-14.3730 Y4.9946 
G01 X-14.4063 Y4.8271 
G01 X-14.4685 Y4.6770 
G01 X-4.1691 Y4.6770 
G01 X-2.5180 Y6.3281 
G01 X-2.5180 Y49.5519 
G01 X-4.1691 Y51.2030 
G00 Z2.5400 
G00 X-10.9090 Y26.1173 
G01 Z-0.1778 F50.00 
G01 X-11.0297 Y25.9966 F75.00 
G01 X-11.1717 Y25.9017 
G01 X-11.3295 Y25.8363 
G01 X-11.4970 Y25.8030 
G01 X-29.6432 Y25.8030 
G01 X-29.7387 Y25.7840 
G01 X-31.2213 Y25.7840 
G01 X-31.3924 Y25.8180 
G01 X-31.5537 Y25.8848 
G01 X-31.6988 Y25.9818 
G01 X-31.8222 Y26.1052 
G01 X-31.9192 Y26.2503 
G01 X-31.9860 Y26.4116 
G01 X-32.0200 Y26.5827 
G01 X-32.0200 Y26.7573 
G01 X-31.9860 Y26.9284 
G01 X-31.9192 Y27.0897 
G01 X-31.8222 Y27.2348 
G01 X-31.6988 Y27.3582 
G01 X-31.5537 Y27.4552 
G01 X-31.3924 Y27.5220 
G01 X-31.2213 Y27.5560 
G01 X-29.7387 Y27.5560 
G01 X-29.6432 Y27.5370 
G01 X-11.9415 Y27.5370 
G01 X-9.7570 Y29.7215 
G01 X-9.7570 Y33.9309 
G01 X-14.5227 Y38.6966 
G01 X-14.6434 Y38.8173 
G01 X-14.7383 Y38.9593 
G01 X-14.8037 Y39.1171 
G01 X-14.8370 Y39.2846 
G01 X-14.8370 Y48.9913 
G01 X-14.9640 Y49.1183 
G01 X-14.9640 Y49.9417 
G01 X-14.3817 Y50.5240 
G01 X-13.5583 Y50.5240 
G01 X-12.9760 Y49.9417 
G01 X-12.9760 Y49.1183 
G01 X-13.1030 Y48.9913 
G01 X-13.1030 Y39.7291 
G01 X-8.3373 Y34.9634 
G01 X-8.2166 Y34.8427 
G01 X-8.1217 Y34.7007 
G01 X-8.0563 Y34.5429 
G01 X-8.0230 Y34.3754 
G01 X-8.0230 Y29.2770 
G01 X-8.0563 Y29.1095 
G01 X-8.1217 Y28.9517 
G01 X-8.2166 Y28.8097 
G01 X-8.3373 Y28.6890 
G01 X-10.9090 Y26.1173 
G00 Z2.5400 
G00 Z2.540000
G00 X-48.2600 Y49.5300 
G01 Z-0.2794 F50.00 
G01 Z2.540000
(R2.5400  P1.000000)
(G00 Z2.540000)
G00 X-50.8000 Y49.5300 
G01 Z-1.600000
G01 Z2.540000
(G00 Z2.540000)
G00 X-62.2300 Y26.6700 
G01 Z-1.600000
G01 Z2.540000
(G00 Z2.540000)
G00 X-62.2300 Y29.2100 
G01 Z-1.600000
G01 Z2.540000
(G00 Z2.540000)
G00 X-48.2600 Y26.6700 
G01 Z-1.600000
G01 Z2.540000
(G00 Z2.540000)
G00 X-58.4200 Y26.6700 
G01 Z-1.600000
G01 Z2.540000
(G00 Z2.540000)
G00 X-10.1600 Y15.2400 
G01 Z-1.600000
G01 Z2.540000
(G00 Z2.540000)
G00 X-12.7000 Y15.2400 
G01 Z-1.600000
G01 Z2.540000
(G00 Z2.540000)
G00 X-15.2400 Y15.2400 
G01 Z-1.600000
G01 Z2.540000
(G00 Z2.540000)
G00 X-45.7200 Y31.7500 
G01 Z-1.600000
G01 Z2.540000
(G00 Z2.540000)
G00 X-45.7200 Y29.2100 
G01 Z-1.600000
G01 Z2.540000
(G00 Z2.540000)
G00 X-45.7200 Y26.6700 
G01 Z-1.600000
G01 Z2.540000
(G00 Z2.540000)
G00 X-45.7200 Y24.1300 
G01 Z-1.600000
G01 Z2.540000
(G00 Z2.540000)
G00 X-41.9100 Y30.4800 
G01 Z-1.600000
G01 Z2.540000
(G00 Z2.540000)
G00 X-41.9100 Y33.0200 
G01 Z-1.600000
G01 Z2.540000
(G00 Z2.540000)
G00 X-39.3700 Y13.9700 
G01 Z-1.600000
G01 Z2.540000
(G00 Z2.540000)
G00 X-41.9100 Y13.9700 
G01 Z-1.600000
G01 Z2.540000
(G00 Z2.540000)
G00 X-30.4800 Y31.7500 
G01 Z-1.600000
G01 Z2.540000
(G00 Z2.540000)
G00 X-30.4800 Y29.2100 
G01 Z-1.600000
G01 Z2.540000
(G00 Z2.540000)
G00 X-30.4800 Y26.6700 
G01 Z-1.600000
G01 Z2.540000
(G00 Z2.540000)
G00 X-30.4800 Y24.1300 
G01 Z-1.600000
G01 Z2.540000
(G00 Z2.540000)
G00 X-30.4800 Y21.5900 
G01 Z-1.600000
G01 Z2.540000
(G00 Z2.540000)
G00 X-30.4800 Y19.0500 
G01 Z-1.600000
G01 Z2.540000
(G00 Z2.540000)
G00 X-30.4800 Y16.5100 
G01 Z-1.600000
G01 Z2.540000
(G00 Z2.540000)
G00 X-30.4800 Y13.9700 
G01 Z-1.600000
G01 Z2.540000
(G00 Z2.540000)
G00 X-45.7200 Y13.9700 
G01 Z-1.600000
G01 Z2.540000
(G00 Z2.540000)
G00 X-45.7200 Y16.5100 
G01 Z-1.600000
G01 Z2.540000
(G00 Z2.540000)
G00 X-45.7200 Y19.0500 
G01 Z-1.600000
G01 Z2.540000
(G00 Z2.540000)
G00 X-45.7200 Y21.5900 
G01 Z-1.600000
G01 Z2.540000
(G00 Z2.540000)
G00 X-44.4500 Y44.4500 
G01 Z-1.600000
G01 Z2.540000
(G00 Z2.540000)
G00 X-45.7200 Y39.3700 
G01 Z-1.600000
G01 Z2.540000
(G00 Z2.540000)
G00 X-30.4800 Y34.2900 
G01 Z-1.600000
G01 Z2.540000
(G00 Z2.540000)
G00 X-31.7500 Y44.4500 
G01 Z-1.600000
G01 Z2.540000
(G00 Z2.540000)
G00 X-34.2900 Y44.4500 
G01 Z-1.600000
G01 Z2.540000
(G00 Z2.540000)
G00 X-36.8300 Y13.9700 
G01 Z-1.600000
G01 Z2.540000
(G00 Z2.540000)
G00 X-45.7200 Y41.9100 
G01 Z-1.600000
G01 Z2.540000
(G00 Z2.540000)
G00 X-45.7200 Y36.8300 
G01 Z-1.600000
G01 Z2.540000
(G00 Z2.540000)
G00 X-30.4800 Y36.8300 
G01 Z-1.600000
G01 Z2.540000
(G00 Z2.540000)
G00 X-30.4800 Y39.3700 
G01 Z-1.600000
G01 Z2.540000
(G00 Z2.540000)
G00 X-39.3700 Y44.4500 
G01 Z-1.600000
G01 Z2.540000
(G00 Z2.540000)
G00 X-30.4800 Y41.9100 
G01 Z-1.600000
G01 Z2.540000
(G00 Z2.540000)
G00 X-41.9100 Y44.4500 
G01 Z-1.600000
G01 Z2.540000
(G00 Z2.540000)
G00 X-45.7200 Y34.2900 
G01 Z-1.600000
G01 Z2.540000
(G00 Z2.540000)
G00 X-36.8300 Y44.4500 
G01 Z-1.600000
G01 Z2.540000
(G00 Z2.540000)
G00 X-16.5100 Y52.0700 
G01 Z-1.600000
G01 Z2.540000
(G00 Z2.540000)
G00 X-16.5100 Y49.5300 
G01 Z-1.600000
G01 Z2.540000
(G00 Z2.540000)
G00 X-13.9700 Y52.0700 
G01 Z-1.600000
G01 Z2.540000
(G00 Z2.540000)
G00 X-13.9700 Y49.5300 
G01 Z-1.600000
G01 Z2.540000
(G00 Z2.540000)
G00 X-11.4300 Y52.0700 
G01 Z-1.600000
G01 Z2.540000
(G00 Z2.540000)
G00 X-11.4300 Y49.5300 
G01 Z-1.600000
G01 Z2.540000
(G00 Z2.540000)
G00 X-8.8900 Y52.0700 
G01 Z-1.600000
G01 Z2.540000
(G00 Z2.540000)
G00 X-8.8900 Y49.5300 
G01 Z-1.600000
G01 Z2.540000
G00 Z12.7000 
M05
M02
